;FLAVOR:Marlin
;TIME:4488
;Filament used: 7.65536m
;Layer height: 0.3
;MINX:18
;MINY:93.5
;MINZ:0.3
;MAXX:192
;MAXY:136.5
;MAXZ:8.1
;Generated with Cura_SteamEngine 4.4.0
M140 S60
M105
M190 S60
M104 S200
M105
M109 S200
M82 ;absolute extrusion mode
G21 ;metric values
G90 ;absolute positioning
M82 ;set extruder to absolute mode
M107 ;start with the fan off
G28 X0 Y0 ;move X/Y to min endstops
G28 Z0 ;move Z to min endstops
G1 Z15.0 F100 ;move the platform down 15mm
G92 E0 ;zero the extruded length
G1 F200 E3 ;extrude 3mm of feed stock
G92 E0 ;zero the extruded length again
G1 F100
G0 Y20 F100
M117 Printing...
G5
G92 E0
G92 E0
G1 F2400 E-6
;LAYER_COUNT:27
;LAYER:0
M106 S255
M204 S3000
M205 X10 Y10
G1 F600 Z0.375
G0 F3000 X44.764 Y116.5 Z0.375
M204 S1800
M205 X8 Y8
;TYPE:SKIRT
G1 F600 Z0.3
G1 F2400 E0
G1 X44.886 Y116.893 E0.02874
G1 X44.981 Y117.465 E0.06924
G1 X44.997 Y117.8 E0.09267
G1 X165.004 Y117.8 E8.47471
G1 X165.04 Y117.286 E8.5107
G1 X165.159 Y116.719 E8.55116
G1 X165.238 Y116.5 E8.56743
G1 X44.764 Y116.5 E16.98209
M204 S3000
M205 X10 Y10
G0 F3000 X44.231 Y116.648
M204 S1800
M205 X8 Y8
G1 F2400 X44.373 Y117.168 E17.01974
G1 X44.44 Y117.864 E17.06857
G1 X44.44 Y118.36 E17.10322
G1 X165.56 Y118.36 E25.563
G1 X165.56 Y117.864 E25.59764
G1 X165.6 Y117.326 E25.63532
G1 X165.719 Y116.8 E25.67299
G1 X165.914 Y116.298 E25.71061
G1 X166.119 Y115.94 E25.73942
G1 X43.878 Y115.94 E34.2775
G1 X44.014 Y116.155 E34.29527
G1 X44.231 Y116.648 E34.33289
M204 S3000
M205 X10 Y10
G0 F3000 X43.741 Y116.949
M204 S1800
M205 X8 Y8
G1 F2400 X43.85 Y117.432 E34.36748
G1 X43.88 Y117.864 E34.39772
G1 X43.88 Y118.92 E34.47148
G1 X166.12 Y118.92 E43.00949
G1 X166.12 Y117.864 E43.08325
G1 X166.16 Y117.37 E43.11786
G1 X166.279 Y116.888 E43.15254
G1 X166.473 Y116.432 E43.18715
G1 X166.738 Y116.013 E43.22178
G1 X167.022 Y115.686 E43.25203
G1 X167.186 Y115.522 E43.26823
G1 X167.353 Y115.38 E43.28354
G1 X42.65 Y115.38 E51.99358
G1 X42.814 Y115.522 E52.00874
G1 X42.978 Y115.686 E52.02494
G1 X43.299 Y116.064 E52.05957
G1 X43.556 Y116.488 E52.0942
G1 X43.741 Y116.949 E52.1289
M204 S3000
M205 X10 Y10
G0 F3000 X43.241 Y117.239
M204 S1800
M205 X8 Y8
G1 F2400 X43.32 Y117.864 E52.1729
G1 X43.32 Y119.48 E52.28577
G1 X166.68 Y119.48 E60.90201
G1 X166.68 Y117.864 E61.01488
G1 X166.72 Y117.417 E61.04623
G1 X166.838 Y116.985 E61.07751
G1 X167.032 Y116.58 E61.10887
G1 X167.418 Y116.082 E61.15288
G1 X167.582 Y115.918 E61.16908
G1 X167.926 Y115.63 E61.20042
G1 X168.316 Y115.408 E61.23176
G1 X168.739 Y115.259 E61.26308
G1 X169.364 Y115.18 E61.30709
G1 X187.636 Y115.18 E62.58332
G1 X188.083 Y115.22 E62.61466
G1 X188.515 Y115.338 E62.64594
G1 X188.92 Y115.532 E62.67731
G1 X189.418 Y115.918 E62.72132
G1 X189.582 Y116.082 E62.73752
G1 X189.87 Y116.426 E62.76885
G1 X190.092 Y116.816 E62.8002
G1 X190.241 Y117.239 E62.83152
G1 X190.32 Y117.864 E62.87552
G1 X190.32 Y132.136 E63.87237
G1 X190.28 Y132.583 E63.90371
G1 X190.162 Y133.015 E63.93499
G1 X189.968 Y133.42 E63.96636
G1 X189.582 Y133.918 E64.01037
G1 X189.418 Y134.082 E64.02657
G1 X189.074 Y134.37 E64.0579
G1 X188.684 Y134.592 E64.08925
G1 X188.261 Y134.741 E64.12057
G1 X187.636 Y134.82 E64.16457
G1 X22.364 Y134.82 E75.70821
G1 X21.917 Y134.78 E75.73955
G1 X21.485 Y134.662 E75.77083
G1 X21.08 Y134.468 E75.8022
G1 X20.582 Y134.082 E75.84621
G1 X20.418 Y133.918 E75.86241
G1 X20.13 Y133.574 E75.89374
G1 X19.908 Y133.184 E75.92509
G1 X19.759 Y132.761 E75.95641
G1 X19.68 Y132.136 E76.00041
G1 X19.68 Y117.864 E76.99726
G1 X19.72 Y117.417 E77.0286
G1 X19.838 Y116.985 E77.05988
G1 X20.032 Y116.58 E77.09125
G1 X20.418 Y116.082 E77.13526
G1 X20.582 Y115.918 E77.15146
G1 X20.926 Y115.63 E77.18279
G1 X21.316 Y115.408 E77.21414
G1 X21.739 Y115.259 E77.24546
G1 X22.364 Y115.18 E77.28946
G1 X40.636 Y115.18 E78.56569
G1 X41.083 Y115.22 E78.59704
G1 X41.515 Y115.338 E78.62832
G1 X41.92 Y115.532 E78.65968
G1 X42.418 Y115.918 E78.70369
G1 X42.582 Y116.082 E78.71989
G1 X42.87 Y116.426 E78.75123
G1 X43.092 Y116.816 E78.78257
G1 X43.241 Y117.239 E78.8139
M204 S3000
M205 X10 Y10
G0 F3000 X42.619 Y117.135
M204 S1800
M205 X8 Y8
G1 F2400 X42.729 Y117.515 E78.84153
G1 X42.76 Y117.864 E78.866
G1 X42.76 Y120.04 E79.01799
G1 X167.24 Y120.04 E87.71245
G1 X167.24 Y117.864 E87.86444
G1 X167.28 Y117.471 E87.89203
G1 X167.398 Y117.093 E87.91969
G1 X167.589 Y116.747 E87.94729
G1 X167.814 Y116.478 E87.97179
G1 X167.978 Y116.314 E87.98799
G1 X168.284 Y116.064 E88.01558
G1 X168.635 Y115.881 E88.04323
G1 X169.015 Y115.771 E88.07086
G1 X169.364 Y115.74 E88.09534
G1 X187.636 Y115.74 E89.37157
G1 X188.029 Y115.78 E89.39916
G1 X188.407 Y115.898 E89.42682
G1 X188.753 Y116.089 E89.45442
G1 X189.022 Y116.314 E89.47892
G1 X189.186 Y116.478 E89.49512
G1 X189.436 Y116.784 E89.52271
G1 X189.619 Y117.135 E89.55036
G1 X189.729 Y117.515 E89.57799
G1 X189.76 Y117.864 E89.60247
G1 X189.76 Y132.136 E90.59931
G1 X189.72 Y132.529 E90.6269
G1 X189.602 Y132.907 E90.65456
G1 X189.411 Y133.253 E90.68217
G1 X189.186 Y133.522 E90.70666
G1 X189.022 Y133.686 E90.72286
G1 X188.716 Y133.936 E90.75046
G1 X188.365 Y134.119 E90.77811
G1 X187.985 Y134.229 E90.80574
G1 X187.636 Y134.26 E90.83021
G1 X22.364 Y134.26 E102.37385
G1 X21.971 Y134.22 E102.40144
G1 X21.593 Y134.102 E102.4291
G1 X21.247 Y133.911 E102.4567
G1 X20.978 Y133.686 E102.4812
G1 X20.814 Y133.522 E102.4974
G1 X20.564 Y133.216 E102.52499
G1 X20.381 Y132.865 E102.55264
G1 X20.271 Y132.485 E102.58027
G1 X20.24 Y132.136 E102.60475
G1 X20.24 Y117.864 E103.60159
G1 X20.28 Y117.471 E103.62918
G1 X20.398 Y117.093 E103.65684
G1 X20.589 Y116.747 E103.68445
G1 X20.814 Y116.478 E103.70894
G1 X20.978 Y116.314 E103.72514
G1 X21.284 Y116.064 E103.75274
G1 X21.635 Y115.881 E103.78039
G1 X22.015 Y115.771 E103.80802
G1 X22.364 Y115.74 E103.83249
G1 X40.636 Y115.74 E105.10872
G1 X41.029 Y115.78 E105.13631
G1 X41.407 Y115.898 E105.16397
G1 X41.753 Y116.089 E105.19158
G1 X42.022 Y116.314 E105.21607
G1 X42.186 Y116.478 E105.23227
G1 X42.436 Y116.784 E105.25987
G1 X42.619 Y117.135 E105.28752
M204 S3000
M205 X10 Y10
G0 F3000 X42.135 Y117.441
M204 S1800
M205 X8 Y8
G1 F2400 X42.2 Y117.864 E105.31741
G1 X42.2 Y120.6 E105.50851
G1 X167.8 Y120.6 E114.2812
G1 X167.8 Y117.864 E114.4723
G1 X167.84 Y117.532 E114.49566
G1 X167.957 Y117.22 E114.51893
G1 X168.21 Y116.874 E114.54887
G1 X168.374 Y116.71 E114.56507
G1 X168.637 Y116.504 E114.5884
G1 X168.941 Y116.365 E114.61175
G1 X169.364 Y116.3 E114.64164
G1 X187.636 Y116.3 E115.91787
G1 X187.968 Y116.34 E115.94123
G1 X188.28 Y116.457 E115.96451
G1 X188.626 Y116.71 E115.99444
G1 X188.79 Y116.874 E116.01064
G1 X188.996 Y117.137 E116.03398
G1 X189.135 Y117.441 E116.05732
G1 X189.2 Y117.864 E116.08722
G1 X189.2 Y132.136 E117.08406
G1 X189.16 Y132.468 E117.10742
G1 X189.043 Y132.78 E117.13069
G1 X188.79 Y133.126 E117.16063
G1 X188.626 Y133.29 E117.17683
G1 X188.363 Y133.496 E117.20016
G1 X188.059 Y133.635 E117.22351
G1 X187.636 Y133.7 E117.2534
G1 X22.364 Y133.7 E128.79704
G1 X22.032 Y133.66 E128.8204
G1 X21.72 Y133.543 E128.84367
G1 X21.374 Y133.29 E128.87361
G1 X21.21 Y133.126 E128.88981
G1 X21.004 Y132.863 E128.91314
G1 X20.865 Y132.559 E128.93649
G1 X20.8 Y132.136 E128.96638
G1 X20.8 Y117.864 E129.96323
G1 X20.84 Y117.532 E129.98658
G1 X20.957 Y117.22 E130.00986
G1 X21.21 Y116.874 E130.0398
G1 X21.374 Y116.71 E130.056
G1 X21.637 Y116.504 E130.07933
G1 X21.941 Y116.365 E130.10268
G1 X22.364 Y116.3 E130.13257
G1 X40.636 Y116.3 E131.4088
G1 X40.968 Y116.34 E131.43216
G1 X41.28 Y116.457 E131.45543
G1 X41.626 Y116.71 E131.48537
G1 X41.79 Y116.874 E131.50157
G1 X41.996 Y117.137 E131.5249
G1 X42.135 Y117.441 E131.54825
M204 S3000
M205 X10 Y10
G0 F3000 X41.546 Y117.479
M204 S1800
M205 X8 Y8
G1 F2400 X41.628 Y117.724 E131.56629
G1 X41.64 Y117.864 E131.57611
G1 X41.64 Y121.16 E131.80632
G1 X168.36 Y121.16 E140.65724
G1 X168.36 Y117.864 E140.88746
G1 X168.4 Y117.609 E140.90549
G1 X168.515 Y117.377 E140.92357
G1 X168.606 Y117.27 E140.93338
G1 X168.77 Y117.106 E140.94958
G1 X168.979 Y116.954 E140.96763
G1 X169.224 Y116.872 E140.98568
G1 X169.364 Y116.86 E140.99549
G1 X187.636 Y116.86 E142.27172
G1 X187.891 Y116.9 E142.28975
G1 X188.123 Y117.015 E142.30784
G1 X188.23 Y117.106 E142.31765
G1 X188.394 Y117.27 E142.33385
G1 X188.546 Y117.479 E142.3519
G1 X188.628 Y117.724 E142.36994
G1 X188.64 Y117.864 E142.37976
G1 X188.64 Y132.136 E143.3766
G1 X188.6 Y132.391 E143.39463
G1 X188.485 Y132.623 E143.41272
G1 X188.394 Y132.73 E143.42253
G1 X188.23 Y132.894 E143.43873
G1 X188.021 Y133.046 E143.45678
G1 X187.776 Y133.128 E143.47482
G1 X187.636 Y133.14 E143.48464
G1 X22.364 Y133.14 E155.02827
G1 X22.109 Y133.1 E155.0463
G1 X21.877 Y132.985 E155.06439
G1 X21.77 Y132.894 E155.0742
G1 X21.606 Y132.73 E155.0904
G1 X21.454 Y132.521 E155.10845
G1 X21.372 Y132.276 E155.12649
G1 X21.36 Y132.136 E155.13631
G1 X21.36 Y117.864 E156.13315
G1 X21.4 Y117.609 E156.15118
G1 X21.515 Y117.377 E156.16927
G1 X21.606 Y117.27 E156.17908
G1 X21.77 Y117.106 E156.19528
G1 X21.979 Y116.954 E156.21333
G1 X22.224 Y116.872 E156.23137
G1 X22.364 Y116.86 E156.24119
G1 X40.636 Y116.86 E157.51742
G1 X40.891 Y116.9 E157.53545
G1 X41.123 Y117.015 E157.55354
G1 X41.23 Y117.106 E157.56335
G1 X41.394 Y117.27 E157.57955
G1 X41.546 Y117.479 E157.5976
M204 S3000
M205 X10 Y10
G0 F3000 X41.08 Y117.864
M204 S1800
M205 X8 Y8
G1 F2400 X41.08 Y121.72 E157.86692
G1 X168.92 Y121.72 E166.79607
G1 X168.92 Y117.864 E167.0654
G1 X169.002 Y117.666 E167.08037
G1 X169.166 Y117.502 E167.09657
G1 X169.364 Y117.42 E167.11154
G1 X187.636 Y117.42 E168.38777
G1 X187.834 Y117.502 E168.40274
G1 X187.998 Y117.666 E168.41894
G1 X188.08 Y117.864 E168.4339
G1 X188.08 Y132.136 E169.43075
G1 X187.998 Y132.334 E169.44572
G1 X187.834 Y132.498 E169.46192
G1 X187.636 Y132.58 E169.47689
G1 X22.364 Y132.58 E181.02052
G1 X22.166 Y132.498 E181.03549
G1 X22.002 Y132.334 E181.05169
G1 X21.92 Y132.136 E181.06666
G1 X21.92 Y117.864 E182.0635
G1 X22.002 Y117.666 E182.07847
G1 X22.166 Y117.502 E182.09467
G1 X22.364 Y117.42 E182.10964
G1 X40.636 Y117.42 E183.38587
G1 X40.834 Y117.502 E183.40084
G1 X40.998 Y117.666 E183.41704
G1 X41.08 Y117.864 E183.43201
M204 S3000
M205 X10 Y10
G1 F2400 E177.43201
G0 F3000 X41.41 Y117.534
G0 X37.748 Y112.961
G0 X22.09 Y112.961
G0 X21.539 Y97.59
G0 X40.91 Y97.039
G0 X41.453 Y101.347
G0 X41.08 Y101.72
M204 S1800
M205 X8 Y8
G1 F2400 E183.43201
G1 X168.92 Y101.72 E192.36116
G1 X168.92 Y97.864 E192.63049
G1 X169.002 Y97.666 E192.64545
G1 X169.166 Y97.502 E192.66165
G1 X169.364 Y97.42 E192.67662
G1 X187.636 Y97.42 E193.95285
G1 X187.834 Y97.502 E193.96782
G1 X187.998 Y97.666 E193.98402
G1 X188.08 Y97.864 E193.99899
G1 X188.08 Y112.136 E194.99584
G1 X187.998 Y112.334 E195.01081
G1 X187.834 Y112.498 E195.02701
G1 X187.636 Y112.58 E195.04197
G1 X22.364 Y112.58 E206.58561
G1 X22.166 Y112.498 E206.60058
G1 X22.002 Y112.334 E206.61678
G1 X21.92 Y112.136 E206.63175
G1 X21.92 Y97.864 E207.62859
G1 X22.002 Y97.666 E207.64356
G1 X22.166 Y97.502 E207.65976
G1 X22.364 Y97.42 E207.67473
G1 X40.636 Y97.42 E208.95096
G1 X40.834 Y97.502 E208.96593
G1 X40.998 Y97.666 E208.98213
G1 X41.08 Y97.864 E208.9971
G1 X41.08 Y101.72 E209.26642
M204 S3000
M205 X10 Y10
G0 F3000 X41.64 Y101.16
M204 S1800
M205 X8 Y8
G1 F2400 X168.36 Y101.16 E218.11734
G1 X168.36 Y97.864 E218.34756
G1 X168.4 Y97.609 E218.36559
G1 X168.515 Y97.377 E218.38367
G1 X168.606 Y97.27 E218.39348
G1 X168.77 Y97.106 E218.40968
G1 X168.979 Y96.954 E218.42773
G1 X169.224 Y96.872 E218.44578
G1 X169.364 Y96.86 E218.45559
G1 X187.636 Y96.86 E219.73182
G1 X187.891 Y96.9 E219.74985
G1 X188.123 Y97.015 E219.76794
G1 X188.23 Y97.106 E219.77775
G1 X188.394 Y97.27 E219.79395
G1 X188.546 Y97.479 E219.812
G1 X188.628 Y97.724 E219.83004
G1 X188.64 Y97.864 E219.83986
G1 X188.64 Y112.136 E220.83671
G1 X188.6 Y112.391 E220.85473
G1 X188.485 Y112.623 E220.87282
G1 X188.394 Y112.73 E220.88263
G1 X188.23 Y112.894 E220.89883
G1 X188.021 Y113.046 E220.91688
G1 X187.776 Y113.128 E220.93493
G1 X187.636 Y113.14 E220.94474
G1 X22.364 Y113.14 E232.48837
G1 X22.109 Y113.1 E232.5064
G1 X21.877 Y112.985 E232.52449
G1 X21.77 Y112.894 E232.5343
G1 X21.606 Y112.73 E232.5505
G1 X21.454 Y112.521 E232.56855
G1 X21.372 Y112.276 E232.5866
G1 X21.36 Y112.136 E232.59641
G1 X21.36 Y97.864 E233.59326
G1 X21.4 Y97.609 E233.61128
G1 X21.515 Y97.377 E233.62937
G1 X21.606 Y97.27 E233.63918
G1 X21.77 Y97.106 E233.65538
G1 X21.979 Y96.954 E233.67343
G1 X22.224 Y96.872 E233.69148
G1 X22.364 Y96.86 E233.70129
G1 X40.636 Y96.86 E234.97752
G1 X40.891 Y96.9 E234.99555
G1 X41.123 Y97.015 E235.01364
G1 X41.23 Y97.106 E235.02345
G1 X41.394 Y97.27 E235.03965
G1 X41.546 Y97.479 E235.0577
G1 X41.628 Y97.724 E235.07574
G1 X41.64 Y97.864 E235.08556
G1 X41.64 Y101.16 E235.31577
M204 S3000
M205 X10 Y10
G0 F3000 X42.2 Y100.6
M204 S1800
M205 X8 Y8
G1 F2400 X167.8 Y100.6 E244.08846
G1 X167.8 Y97.864 E244.27956
G1 X167.84 Y97.532 E244.30292
G1 X167.957 Y97.22 E244.32619
G1 X168.21 Y96.874 E244.35613
G1 X168.374 Y96.71 E244.37233
G1 X168.637 Y96.504 E244.39566
G1 X168.941 Y96.365 E244.41901
G1 X169.364 Y96.3 E244.4489
G1 X187.636 Y96.3 E245.72514
G1 X187.968 Y96.34 E245.74849
G1 X188.28 Y96.457 E245.77177
G1 X188.626 Y96.71 E245.8017
G1 X188.79 Y96.874 E245.8179
G1 X188.996 Y97.137 E245.84124
G1 X189.135 Y97.441 E245.86459
G1 X189.2 Y97.864 E245.89448
G1 X189.2 Y112.136 E246.89132
G1 X189.16 Y112.468 E246.91468
G1 X189.043 Y112.78 E246.93795
G1 X188.79 Y113.126 E246.96789
G1 X188.626 Y113.29 E246.98409
G1 X188.363 Y113.496 E247.00743
G1 X188.059 Y113.635 E247.03077
G1 X187.636 Y113.7 E247.06066
G1 X22.364 Y113.7 E258.6043
G1 X22.032 Y113.66 E258.62766
G1 X21.72 Y113.543 E258.65093
G1 X21.374 Y113.29 E258.68087
G1 X21.21 Y113.126 E258.69707
G1 X21.004 Y112.863 E258.7204
G1 X20.865 Y112.559 E258.74375
G1 X20.8 Y112.136 E258.77364
G1 X20.8 Y97.864 E259.77049
G1 X20.84 Y97.532 E259.79384
G1 X20.957 Y97.22 E259.81712
G1 X21.21 Y96.874 E259.84706
G1 X21.374 Y96.71 E259.86326
G1 X21.637 Y96.504 E259.88659
G1 X21.941 Y96.365 E259.90994
G1 X22.364 Y96.3 E259.93983
G1 X40.636 Y96.3 E261.21606
G1 X40.968 Y96.34 E261.23942
G1 X41.28 Y96.457 E261.26269
G1 X41.626 Y96.71 E261.29263
G1 X41.79 Y96.874 E261.30883
G1 X41.996 Y97.137 E261.33216
G1 X42.135 Y97.441 E261.35551
G1 X42.2 Y97.864 E261.3854
G1 X42.2 Y100.6 E261.5765
M204 S3000
M205 X10 Y10
G0 F3000 X42.76 Y100.04
M204 S1800
M205 X8 Y8
G1 F2400 X167.24 Y100.04 E270.27097
G1 X167.24 Y97.864 E270.42295
G1 X167.28 Y97.471 E270.45054
G1 X167.398 Y97.093 E270.4782
G1 X167.589 Y96.747 E270.50581
G1 X167.814 Y96.478 E270.5303
G1 X167.978 Y96.314 E270.5465
G1 X168.284 Y96.064 E270.5741
G1 X168.635 Y95.881 E270.60175
G1 X169.015 Y95.771 E270.62938
G1 X169.364 Y95.74 E270.65385
G1 X187.636 Y95.74 E271.93008
G1 X188.029 Y95.78 E271.95767
G1 X188.407 Y95.898 E271.98533
G1 X188.753 Y96.089 E272.01294
G1 X189.022 Y96.314 E272.03743
G1 X189.186 Y96.478 E272.05363
G1 X189.436 Y96.784 E272.08123
G1 X189.619 Y97.135 E272.10888
G1 X189.729 Y97.515 E272.13651
G1 X189.76 Y97.864 E272.16098
G1 X189.76 Y112.136 E273.15783
G1 X189.72 Y112.529 E273.18542
G1 X189.602 Y112.907 E273.21308
G1 X189.411 Y113.253 E273.24068
G1 X189.186 Y113.522 E273.26518
G1 X189.022 Y113.686 E273.28138
G1 X188.716 Y113.936 E273.30898
G1 X188.365 Y114.119 E273.33662
G1 X187.985 Y114.229 E273.36425
G1 X187.636 Y114.26 E273.38873
G1 X22.364 Y114.26 E284.93236
G1 X21.971 Y114.22 E284.95995
G1 X21.593 Y114.102 E284.98761
G1 X21.247 Y113.911 E285.01522
G1 X20.978 Y113.686 E285.03971
G1 X20.814 Y113.522 E285.05591
G1 X20.564 Y113.216 E285.08351
G1 X20.381 Y112.865 E285.11116
G1 X20.271 Y112.485 E285.13879
G1 X20.24 Y112.136 E285.16326
G1 X20.24 Y97.864 E286.16011
G1 X20.28 Y97.471 E286.1877
G1 X20.398 Y97.093 E286.21536
G1 X20.589 Y96.747 E286.24296
G1 X20.814 Y96.478 E286.26746
G1 X20.978 Y96.314 E286.28366
G1 X21.284 Y96.064 E286.31125
G1 X21.635 Y95.881 E286.3389
G1 X22.015 Y95.771 E286.36653
G1 X22.364 Y95.74 E286.39101
G1 X40.636 Y95.74 E287.66724
G1 X41.029 Y95.78 E287.69483
G1 X41.407 Y95.898 E287.72249
G1 X41.753 Y96.089 E287.75009
G1 X42.022 Y96.314 E287.77459
G1 X42.186 Y96.478 E287.79079
