;FLAVOR:Marlin
;TIME:7591
;Filament used: 12.2151m
;Layer height: 0.3
;MINX:43.3
;MINY:65.8
;MINZ:0.3
;MAXX:166.7
;MAXY:144.2
;MAXZ:27.9
;Generated with Cura_SteamEngine 4.4.0
M140 S60
M105
M190 S60
M104 S200
M105
M109 S200
M82 ;absolute extrusion mode
G21 ;metric values
G90 ;absolute positioning
M82 ;set extruder to absolute mode
M107 ;start with the fan off
G28 X0 Y0 ;move X/Y to min endstops
G28 Z0 ;move Z to min endstops
G1 Z15.0 F100 ;move the platform down 15mm
G92 E0 ;zero the extruded length
G1 F200 E3 ;extrude 3mm of feed stock
G92 E0 ;zero the extruded length again
G1 F100
G0 Y20 F100
M117 Printing...
G5
G92 E0
G92 E0
G1 F2400 E-6
;LAYER_COUNT:93
;LAYER:0
M106 S255
M204 S3000
M205 X10 Y10
G1 F600 Z0.375
G0 F3000 X54.834 Y66.909 Z0.375
M204 S1800
M205 X8 Y8
;TYPE:SKIRT
G1 F600 Z0.3
G1 F2400 E0
G1 X55.286 Y66.547 E0.04045
G1 X55.784 Y66.251 E0.08091
G1 X56.318 Y66.026 E0.12138
G1 X56.878 Y65.877 E0.16186
G1 X57.677 Y65.8 E0.21793
G1 X152.336 Y65.8 E6.8295
G1 X152.914 Y65.84 E6.86997
G1 X153.481 Y65.959 E6.91044
G1 X154.026 Y66.155 E6.95089
G1 X154.539 Y66.424 E6.99135
G1 X155.01 Y66.761 E7.0318
G1 X155.306 Y67.03 E7.05974
G1 X155.47 Y67.194 E7.07594
G1 X155.85 Y67.631 E7.11639
G1 X156.167 Y68.116 E7.15686
G1 X156.414 Y68.64 E7.19732
G1 X156.586 Y69.193 E7.23777
G1 X156.681 Y69.765 E7.27827
G1 X156.7 Y70.164 E7.30617
G1 X156.7 Y95.827 E9.09863
G1 X156.98 Y95.8 E9.11828
G1 X162.383 Y95.8 E9.49566
G1 X162.961 Y95.84 E9.53613
G1 X163.528 Y95.959 E9.57659
G1 X164.073 Y96.155 E9.61705
G1 X164.586 Y96.424 E9.6575
G1 X165.057 Y96.761 E9.69795
G1 X165.477 Y97.16 E9.73842
G1 X165.839 Y97.613 E9.77892
G1 X166.134 Y98.111 E9.81935
G1 X166.359 Y98.645 E9.85982
G1 X166.507 Y99.205 E9.90028
G1 X166.583 Y99.95 E9.95258
G1 X166.7 Y109.833 E10.64292
G1 X166.667 Y110.412 E10.68343
G1 X166.554 Y110.98 E10.72388
G1 X166.365 Y111.527 E10.7643
G1 X166.102 Y112.044 E10.80482
G1 X165.77 Y112.519 E10.84529
G1 X165.47 Y112.853 E10.87665
G1 X165.353 Y112.97 E10.88821
G1 X164.916 Y113.35 E10.92866
G1 X164.431 Y113.667 E10.96913
G1 X163.907 Y113.914 E11.00959
G1 X163.354 Y114.086 E11.05004
G1 X162.782 Y114.181 E11.09054
G1 X162.383 Y114.2 E11.11844
G1 X156.98 Y114.2 E11.49582
G1 X156.7 Y114.181 E11.51542
G1 X156.7 Y139.836 E13.30733
G1 X156.66 Y140.414 E13.34779
G1 X156.541 Y140.981 E13.38826
G1 X156.345 Y141.526 E13.42871
G1 X156.076 Y142.039 E13.46917
G1 X155.739 Y142.51 E13.50962
G1 X155.47 Y142.806 E13.53756
G1 X155.306 Y142.97 E13.55376
G1 X154.869 Y143.35 E13.59421
G1 X154.384 Y143.667 E13.63468
G1 X153.86 Y143.914 E13.67514
G1 X153.307 Y144.086 E13.71559
G1 X152.735 Y144.181 E13.75609
G1 X152.336 Y144.2 E13.78399
G1 X57.683 Y144.2 E20.39515
G1 X57.105 Y144.16 E20.43562
G1 X56.538 Y144.041 E20.47608
G1 X55.993 Y143.845 E20.51653
G1 X55.48 Y143.576 E20.55699
G1 X55.009 Y143.239 E20.59744
G1 X54.779 Y143.034 E20.61896
G1 X54.616 Y142.878 E20.63472
G1 X54.226 Y142.45 E20.67517
G1 X53.899 Y141.972 E20.71562
G1 X53.641 Y141.453 E20.7561
G1 X53.456 Y140.904 E20.79656
G1 X53.349 Y140.335 E20.837
G1 X53.322 Y139.987 E20.86138
G1 X53.302 Y139.4 E20.90241
G1 X53.3 Y139.257 E20.9124
G1 X53.3 Y114.173 E22.66442
G1 X53.02 Y114.2 E22.68407
G1 X47.617 Y114.2 E23.06145
G1 X47.039 Y114.16 E23.10191
G1 X46.472 Y114.041 E23.14238
G1 X45.927 Y113.845 E23.18283
G1 X45.414 Y113.576 E23.22329
G1 X44.943 Y113.239 E23.26374
G1 X44.647 Y112.97 E23.29168
G1 X44.53 Y112.853 E23.30324
G1 X44.15 Y112.416 E23.34368
G1 X43.833 Y111.931 E23.38415
G1 X43.586 Y111.407 E23.42462
G1 X43.414 Y110.854 E23.46507
G1 X43.319 Y110.282 E23.50557
G1 X43.3 Y109.883 E23.53347
G1 X43.3 Y100.117 E24.21558
G1 X43.34 Y99.539 E24.25605
G1 X43.459 Y98.972 E24.29652
G1 X43.655 Y98.427 E24.33697
G1 X43.924 Y97.914 E24.37743
G1 X44.261 Y97.443 E24.41788
G1 X44.53 Y97.147 E24.44582
G1 X44.647 Y97.03 E24.45737
G1 X45.084 Y96.65 E24.49782
G1 X45.569 Y96.333 E24.53829
G1 X46.093 Y96.086 E24.57875
G1 X46.646 Y95.914 E24.6192
G1 X47.218 Y95.819 E24.6597
G1 X47.617 Y95.8 E24.6876
G1 X53.02 Y95.8 E25.06498
G1 X53.3 Y95.819 E25.08459
G1 X53.3 Y70.326 E26.86518
G1 X53.315 Y69.971 E26.88999
G1 X53.33 Y69.794 E26.9024
G1 X53.419 Y69.222 E26.94283
G1 X53.585 Y68.667 E26.9833
G1 X53.826 Y68.14 E27.02377
G1 X54.138 Y67.652 E27.06423
G1 X54.672 Y67.058 E27.12002
G1 X54.834 Y66.909 E27.13539
M204 S3000
M205 X10 Y10
G0 F3000 X55.213 Y67.321
M204 S1800
M205 X8 Y8
G1 F2400 X55.636 Y66.986 E27.17308
G1 X56.103 Y66.718 E27.21069
G1 X56.606 Y66.521 E27.24842
G1 X57.131 Y66.401 E27.28603
G1 X57.677 Y66.36 E27.32427
G1 X152.336 Y66.36 E33.93585
G1 X152.874 Y66.4 E33.97354
G1 X153.4 Y66.519 E34.0112
G1 X153.902 Y66.714 E34.04882
G1 X154.371 Y66.982 E34.08655
G1 X154.91 Y67.426 E34.13532
G1 X155.074 Y67.59 E34.15152
G1 X155.426 Y67.999 E34.18921
G1 X155.714 Y68.455 E34.22688
G1 X155.931 Y68.948 E34.2645
G1 X156.073 Y69.468 E34.30215
G1 X156.14 Y70.164 E34.35099
G1 X156.14 Y96.459 E36.1876
G1 X156.66 Y96.374 E36.2244
G1 X156.98 Y96.36 E36.24677
G1 X162.383 Y96.36 E36.62415
G1 X162.921 Y96.4 E36.66184
G1 X163.447 Y96.519 E36.6995
G1 X163.949 Y96.714 E36.73712
G1 X164.418 Y96.982 E36.77485
G1 X164.841 Y97.315 E36.81245
G1 X165.211 Y97.708 E36.85015
G1 X165.518 Y98.151 E36.88779
G1 X165.757 Y98.635 E36.9255
G1 X165.922 Y99.148 E36.96314
G1 X166.009 Y99.68 E37.00079
G1 X166.023 Y99.957 E37.02016
G1 X166.14 Y109.84 E37.7105
G1 X166.106 Y110.378 E37.74815
G1 X165.993 Y110.905 E37.7858
G1 X165.804 Y111.41 E37.82346
G1 X165.542 Y111.882 E37.86116
G1 X165.074 Y112.457 E37.91295
G1 X164.957 Y112.574 E37.9245
G1 X164.548 Y112.926 E37.96219
G1 X164.092 Y113.214 E37.99987
G1 X163.599 Y113.431 E38.03749
G1 X163.079 Y113.573 E38.07514
G1 X162.383 Y113.64 E38.12398
G1 X156.98 Y113.64 E38.50135
G1 X156.442 Y113.6 E38.53904
G1 X156.14 Y113.532 E38.56066
G1 X156.14 Y139.836 E40.39789
G1 X156.1 Y140.374 E40.43558
G1 X155.981 Y140.9 E40.47324
G1 X155.786 Y141.402 E40.51086
G1 X155.518 Y141.871 E40.54859
G1 X155.074 Y142.41 E40.59736
G1 X154.91 Y142.574 E40.61356
G1 X154.501 Y142.926 E40.65125
G1 X154.045 Y143.214 E40.68892
G1 X153.552 Y143.431 E40.72654
G1 X153.032 Y143.573 E40.76419
G1 X152.336 Y143.64 E40.81303
G1 X57.683 Y143.64 E47.42419
G1 X57.145 Y143.6 E47.46187
G1 X56.619 Y143.481 E47.49954
G1 X56.117 Y143.286 E47.53716
G1 X55.648 Y143.018 E47.57489
G1 X55.166 Y142.63 E47.6181
G1 X55.003 Y142.474 E47.63386
G1 X54.642 Y142.073 E47.67155
G1 X54.345 Y141.623 E47.70921
G1 X54.117 Y141.135 E47.74683
G1 X53.963 Y140.618 E47.78451
G1 X53.882 Y139.968 E47.83026
G1 X53.862 Y139.381 E47.87128
G1 X53.86 Y139.257 E47.87995
G1 X53.86 Y113.541 E49.67611
G1 X53.34 Y113.626 E49.71291
G1 X53.02 Y113.64 E49.73529
G1 X47.617 Y113.64 E50.11267
G1 X47.079 Y113.6 E50.15035
G1 X46.553 Y113.481 E50.18801
G1 X46.051 Y113.286 E50.22563
G1 X45.582 Y113.018 E50.26336
G1 X45.043 Y112.574 E50.31213
G1 X44.926 Y112.457 E50.32369
G1 X44.574 Y112.048 E50.36138
G1 X44.286 Y111.592 E50.39905
G1 X44.069 Y111.099 E50.43667
G1 X43.927 Y110.579 E50.47432
G1 X43.86 Y109.883 E50.52316
G1 X43.86 Y100.117 E51.20528
G1 X43.9 Y99.579 E51.24296
G1 X44.019 Y99.053 E51.28063
G1 X44.214 Y98.551 E51.31824
G1 X44.482 Y98.082 E51.35597
G1 X44.926 Y97.543 E51.40475
G1 X45.043 Y97.426 E51.41631
G1 X45.452 Y97.074 E51.454
G1 X45.908 Y96.786 E51.49167
G1 X46.401 Y96.569 E51.52929
G1 X46.921 Y96.427 E51.56694
G1 X47.617 Y96.36 E51.61578
G1 X53.02 Y96.36 E51.99316
G1 X53.558 Y96.4 E52.03084
G1 X53.86 Y96.468 E52.05246
G1 X53.86 Y70.326 E53.87838
G1 X53.873 Y70.019 E53.89984
G1 X53.888 Y69.842 E53.91225
G1 X53.973 Y69.309 E53.94995
G1 X54.136 Y68.795 E53.98761
G1 X54.373 Y68.311 E54.02525
G1 X54.679 Y67.867 E54.06291
G1 X55.051 Y67.47 E54.10091
G1 X55.213 Y67.321 E54.11629
M204 S3000
M205 X10 Y10
G0 F3000 X55.592 Y67.733
M204 S1800
M205 X8 Y8
G1 F2400 X55.983 Y67.428 E54.15092
G1 X56.418 Y67.189 E54.18559
G1 X56.885 Y67.024 E54.22019
G1 X57.373 Y66.935 E54.25483
G1 X57.677 Y66.92 E54.27609
G1 X152.336 Y66.92 E60.88767
G1 X152.83 Y66.96 E60.92229
G1 X153.312 Y67.079 E60.95696
G1 X153.768 Y67.273 E60.99158
G1 X154.187 Y67.538 E61.0262
G1 X154.514 Y67.822 E61.05646
G1 X154.678 Y67.986 E61.07266
G1 X154.999 Y68.364 E61.10729
G1 X155.256 Y68.788 E61.14192
G1 X155.441 Y69.249 E61.17662
G1 X155.55 Y69.732 E61.2112
G1 X155.58 Y70.164 E61.24145
G1 X155.58 Y97.263 E63.13421
G1 X155.662 Y97.216 E63.14081
G1 X156.125 Y97.041 E63.17539
G1 X156.612 Y96.942 E63.2101
G1 X156.98 Y96.92 E63.23585
G1 X162.383 Y96.92 E63.61323
G1 X162.877 Y96.96 E63.64784
G1 X163.359 Y97.079 E63.68252
G1 X163.815 Y97.273 E63.71713
G1 X164.234 Y97.538 E63.75176
G1 X164.605 Y97.868 E63.78644
G1 X164.919 Y98.252 E63.82109
G1 X165.167 Y98.682 E63.85576
G1 X165.342 Y99.145 E63.89033
G1 X165.441 Y99.632 E63.92504
G1 X165.463 Y99.964 E63.94828
G1 X165.58 Y109.847 E64.63862
G1 X165.546 Y110.341 E64.67321
G1 X165.433 Y110.824 E64.70785
G1 X165.244 Y111.283 E64.74252
G1 X164.983 Y111.705 E64.77718
G1 X164.678 Y112.061 E64.80992
G1 X164.561 Y112.178 E64.82148
G1 X164.183 Y112.499 E64.85612
G1 X163.759 Y112.756 E64.89075
G1 X163.298 Y112.941 E64.92544
G1 X162.815 Y113.05 E64.96003
G1 X162.383 Y113.08 E64.99027
G1 X156.98 Y113.08 E65.36765
G1 X156.486 Y113.04 E65.40227
G1 X156.004 Y112.921 E65.43695
G1 X155.58 Y112.741 E65.46912
G1 X155.58 Y139.836 E67.3616
G1 X155.54 Y140.33 E67.39622
G1 X155.421 Y140.812 E67.4309
G1 X155.227 Y141.268 E67.46551
G1 X154.962 Y141.687 E67.50014
G1 X154.678 Y142.014 E67.53039
G1 X154.514 Y142.178 E67.54659
G1 X154.136 Y142.499 E67.58123
G1 X153.712 Y142.756 E67.61586
G1 X153.251 Y142.941 E67.65055
G1 X152.768 Y143.05 E67.68514
G1 X152.336 Y143.08 E67.71538
G1 X57.683 Y143.08 E74.32654
G1 X57.189 Y143.04 E74.36116
G1 X56.707 Y142.921 E74.39584
G1 X56.251 Y142.727 E74.43045
G1 X55.832 Y142.462 E74.46508
G1 X55.553 Y142.225 E74.49065
G1 X55.39 Y142.069 E74.5064
G1 X55.061 Y141.698 E74.54104
G1 X54.795 Y141.28 E74.57564
G1 X54.6 Y140.824 E74.61028
G1 X54.481 Y140.342 E74.64496
G1 X54.442 Y139.949 E74.67255
G1 X54.422 Y139.362 E74.71357
G1 X54.42 Y139.257 E74.7209
G1 X54.42 Y112.737 E76.57323
G1 X54.338 Y112.784 E76.57983
G1 X53.875 Y112.959 E76.6144
G1 X53.388 Y113.058 E76.64911
G1 X53.02 Y113.08 E76.67486
G1 X47.617 Y113.08 E77.05224
G1 X47.123 Y113.04 E77.08686
G1 X46.641 Y112.921 E77.12153
G1 X46.185 Y112.727 E77.15615
G1 X45.766 Y112.462 E77.19077
G1 X45.439 Y112.178 E77.22103
G1 X45.322 Y112.061 E77.23258
G1 X45.001 Y111.683 E77.26722
G1 X44.744 Y111.259 E77.30185
G1 X44.559 Y110.798 E77.33654
G1 X44.45 Y110.315 E77.37113
G1 X44.42 Y109.883 E77.40138
G1 X44.42 Y100.117 E78.08349
G1 X44.46 Y99.623 E78.11811
G1 X44.579 Y99.141 E78.15279
G1 X44.773 Y98.685 E78.1874
G1 X45.038 Y98.266 E78.22203
G1 X45.322 Y97.939 E78.25228
G1 X45.439 Y97.822 E78.26384
G1 X45.817 Y97.501 E78.29847
G1 X46.241 Y97.244 E78.3331
G1 X46.702 Y97.059 E78.3678
G1 X47.185 Y96.95 E78.40238
G1 X47.617 Y96.92 E78.43263
G1 X53.02 Y96.92 E78.81001
G1 X53.514 Y96.96 E78.84463
G1 X53.996 Y97.079 E78.8793
G1 X54.42 Y97.259 E78.91148
G1 X54.42 Y70.326 E80.79265
G1 X54.431 Y70.066 E80.81082
G1 X54.446 Y69.889 E80.82323
G1 X54.528 Y69.4 E80.85786
G1 X54.687 Y68.93 E80.89252
G1 X54.919 Y68.492 E80.92714
G1 X55.219 Y68.096 E80.96184
G1 X55.43 Y67.882 E80.98283
G1 X55.592 Y67.733 E80.9982
M204 S3000
M205 X10 Y10
G0 F3000 X55.971 Y68.145
M204 S1800
M205 X8 Y8
G1 F2400 X56.327 Y67.872 E81.02953
G1 X56.726 Y67.667 E81.06087
G1 X57.154 Y67.535 E81.09215
G1 X57.677 Y67.48 E81.12888
G1 X152.336 Y67.48 E87.74046
G1 X152.783 Y67.52 E87.77181
G1 X153.215 Y67.638 E87.80309
G1 X153.62 Y67.832 E87.83445
G1 X154.118 Y68.218 E87.87846
G1 X154.282 Y68.382 E87.89466
G1 X154.57 Y68.726 E87.92599
G1 X154.792 Y69.116 E87.95734
G1 X154.941 Y69.539 E87.98866
G1 X155.02 Y70.164 E88.03266
G1 X155.02 Y98.427 E90.00673
G1 X155.074 Y98.352 E90.01319
G1 X155.396 Y98.04 E90.0445
G1 X155.769 Y97.79 E90.07586
G1 X156.18 Y97.61 E90.1072
G1 X156.616 Y97.506 E90.13851
G1 X156.98 Y97.48 E90.164
G1 X162.383 Y97.48 E90.54138
G1 X162.83 Y97.52 E90.57273
G1 X163.262 Y97.638 E90.604
G1 X163.667 Y97.832 E90.63537
G1 X164.031 Y98.094 E90.6667
G1 X164.343 Y98.416 E90.69801
G1 X164.593 Y98.789 E90.72937
G1 X164.773 Y99.2 E90.76071
G1 X164.877 Y99.636 E90.79202
G1 X164.903 Y99.97 E90.81542
G1 X165.02 Y109.853 E91.50576
G1 X164.985 Y110.3 E91.53708
G1 X164.872 Y110.734 E91.5684
G1 X164.683 Y111.141 E91.59974
G1 X164.282 Y111.665 E91.64583
G1 X164.165 Y111.782 E91.65739
G1 X163.821 Y112.07 E91.68872
G1 X163.431 Y112.292 E91.72007
G1 X163.008 Y112.441 E91.75139
G1 X162.383 Y112.52 E91.79539
G1 X156.98 Y112.52 E92.17277
G1 X156.533 Y112.48 E92.20412
G1 X156.101 Y112.362 E92.2354
G1 X155.696 Y112.168 E92.26676
G1 X155.332 Y111.906 E92.29809
G1 X155.02 Y111.584 E92.3294
G1 X155.02 Y139.836 E94.3027
G1 X154.98 Y140.283 E94.33405
G1 X154.862 Y140.715 E94.36533
G1 X154.668 Y141.12 E94.39669
G1 X154.282 Y141.618 E94.4407
G1 X154.118 Y141.782 E94.4569
G1 X153.774 Y142.07 E94.48824
G1 X153.384 Y142.292 E94.51958
G1 X152.961 Y142.441 E94.55091
G1 X152.336 Y142.52 E94.59491
G1 X57.683 Y142.52 E101.20607
G1 X57.236 Y142.48 E101.23741
G1 X56.804 Y142.362 E101.26869
G1 X56.399 Y142.168 E101.30006
G1 X55.941 Y141.821 E101.34019
G1 X55.778 Y141.665 E101.35595
G1 X55.482 Y141.327 E101.38733
G1 X55.252 Y140.942 E101.41866
G1 X55.093 Y140.523 E101.44996
G1 X55.001 Y139.93 E101.49187
G1 X54.981 Y139.343 E101.5329
G1 X54.98 Y139.257 E101.5389
G1 X54.98 Y111.573 E103.47253
G1 X54.926 Y111.648 E103.47898
G1 X54.604 Y111.96 E103.5103
G1 X54.231 Y112.21 E103.54166
G1 X53.82 Y112.39 E103.573
G1 X53.384 Y112.494 E103.60431
G1 X53.02 Y112.52 E103.6298
G1 X47.617 Y112.52 E104.00718
G1 X47.17 Y112.48 E104.03852
G1 X46.738 Y112.362 E104.0698
G1 X46.333 Y112.168 E104.10117
G1 X45.835 Y111.782 E104.14518
G1 X45.718 Y111.665 E104.15673
G1 X45.43 Y111.321 E104.18807
G1 X45.208 Y110.931 E104.21941
G1 X45.059 Y110.508 E104.25074
G1 X44.98 Y109.883 E104.29474
G1 X44.98 Y100.117 E104.97686
G1 X45.02 Y99.67 E105.0082
G1 X45.138 Y99.238 E105.03948
G1 X45.332 Y98.833 E105.07085
G1 X45.718 Y98.335 E105.11486
G1 X45.835 Y98.218 E105.12641
G1 X46.179 Y97.93 E105.15775
G1 X46.569 Y97.708 E105.18909
G1 X46.992 Y97.559 E105.22042
G1 X47.617 Y97.48 E105.26442
G1 X53.02 Y97.48 E105.6418
G1 X53.467 Y97.52 E105.67314
G1 X53.899 Y97.638 E105.70442
G1 X54.304 Y97.832 E105.73579
G1 X54.668 Y98.094 E105.76711
G1 X54.98 Y98.416 E105.79843
G1 X54.98 Y70.326 E107.76041
G1 X54.989 Y70.113 E107.7753
G1 X55.004 Y69.936 E107.78771
G1 X55.082 Y69.494 E107.81906
G1 X55.236 Y69.073 E107.85037
G1 X55.463 Y68.686 E107.88171
G1 X55.809 Y68.294 E107.91823
G1 X55.971 Y68.145 E107.9336
M204 S3000
M205 X10 Y10
G0 F3000 X56.35 Y68.557
M204 S1800
M205 X8 Y8
G1 F2400 X56.667 Y68.32 E107.96125
G1 X57.024 Y68.152 E107.9888
G1 X57.409 Y68.058 E108.01648
G1 X57.677 Y68.04 E108.03525
G1 X152.336 Y68.04 E114.64683
G1 X152.729 Y68.08 E114.67442
G1 X153.107 Y68.198 E114.70208
G1 X153.453 Y68.389 E114.72968
G1 X153.722 Y68.614 E114.75417
G1 X153.886 Y68.778 E114.77037
G1 X154.136 Y69.084 E114.79797
G1 X154.319 Y69.435 E114.82562
G1 X154.429 Y69.815 E114.85325
G1 X154.46 Y70.164 E114.87772
G1 X154.46 Y139.836 E119.74405
G1 X154.42 Y140.229 E119.77165
G1 X154.302 Y140.607 E119.7993
G1 X154.111 Y140.953 E119.82691
G1 X153.886 Y141.222 E119.8514
G1 X153.722 Y141.386 E119.8676
G1 X153.416 Y141.636 E119.8952
G1 X153.065 Y141.819 E119.92285
G1 X152.685 Y141.929 E119.95048
G1 X152.336 Y141.96 E119.97495
G1 X57.683 Y141.96 E126.58611
G1 X57.29 Y141.92 E126.61371
G1 X56.912 Y141.802 E126.64136
G1 X56.566 Y141.611 E126.66897
G1 X56.328 Y141.416 E126.69046
G1 X56.165 Y141.26 E126.70622
G1 X55.908 Y140.959 E126.73386
G1 X55.717 Y140.613 E126.76147
G1 X55.599 Y140.235 E126.78913
G1 X55.561 Y139.911 E126.81191
G1 X55.541 Y139.324 E126.85293
G1 X55.54 Y139.257 E126.85761
G1 X55.54 Y70.326 E131.67219
G1 X55.547 Y70.16 E131.68379
G1 X55.562 Y69.983 E131.6962
G1 X55.635 Y69.595 E131.72378
G1 X55.785 Y69.229 E131.7514
G1 X56.004 Y68.9 E131.77901
G1 X56.188 Y68.706 E131.79768
G1 X56.35 Y68.557 E131.81306
M204 S3000
M205 X10 Y10
G0 F3000 X56.729 Y68.97
M204 S1800
