;FLAVOR:Marlin
;TIME:1916
;Filament used: 3.84649m
;Layer height: 0.3
;MINX:32.8
;MINY:87.3
;MINZ:0.3
;MAXX:177.2
;MAXY:122.7
;MAXZ:9.9
;Generated with Cura_SteamEngine 4.4.0
M140 S60
M105
M190 S60
M104 S200
M105
M109 S200
M82 ;absolute extrusion mode
G21 ;metric values
G90 ;absolute positioning
M82 ;set extruder to absolute mode
M107 ;start with the fan off
G28 X0 Y0 ;move X/Y to min endstops
G28 Z0 ;move Z to min endstops
G1 Z15.0 F100 ;move the platform down 15mm
G92 E0 ;zero the extruded length
G1 F200 E3 ;extrude 3mm of feed stock
G92 E0 ;zero the extruded length again
G1 F100
G0 Y20 F100
M117 Printing...
G5
G92 E0
G92 E0
G1 F2400 E-6
;LAYER_COUNT:33
;LAYER:0
M106 S255
M204 S3000
M205 X10 Y10
G1 F600 Z0.375
G0 F3000 X35.64 Y87.586 Z0.375
M204 S1800
M205 X8 Y8
;TYPE:SKIRT
G1 F600 Z0.3
G1 F2400 E0
G1 X36.193 Y87.414 E0.04045
G1 X36.765 Y87.319 E0.08095
G1 X37.164 Y87.3 E0.10885
G1 X172.836 Y87.3 E9.58503
G1 X173.414 Y87.34 E9.6255
G1 X173.981 Y87.459 E9.66597
G1 X174.526 Y87.655 E9.70642
G1 X175.039 Y87.924 E9.74688
G1 X175.51 Y88.261 E9.78733
G1 X175.93 Y88.66 E9.82779
G1 X176.292 Y89.113 E9.8683
G1 X176.587 Y89.611 E9.90872
G1 X176.812 Y90.145 E9.9492
G1 X176.96 Y90.705 E9.98965
G1 X177.036 Y91.474 E10.04363
G1 X177.2 Y118.31 E11.91806
G1 X177.164 Y118.888 E11.95851
G1 X177.048 Y119.456 E11.999
G1 X176.855 Y120.002 E12.03945
G1 X176.589 Y120.517 E12.07993
G1 X176.255 Y120.99 E12.12038
G1 X175.97 Y121.306 E12.1501
G1 X175.806 Y121.47 E12.1663
G1 X175.369 Y121.85 E12.20675
G1 X174.884 Y122.167 E12.24722
G1 X174.36 Y122.414 E12.28768
G1 X173.807 Y122.586 E12.32813
G1 X173.235 Y122.681 E12.36863
G1 X172.836 Y122.7 E12.39653
G1 X163.164 Y122.7 E13.07208
G1 X162.586 Y122.66 E13.11255
G1 X162.019 Y122.541 E13.15301
G1 X161.474 Y122.345 E13.19347
G1 X160.961 Y122.076 E13.23393
G1 X160.49 Y121.739 E13.27438
G1 X160.194 Y121.47 E13.30231
G1 X160.03 Y121.306 E13.31851
G1 X159.65 Y120.869 E13.35896
G1 X159.333 Y120.384 E13.39943
G1 X159.086 Y119.86 E13.43989
G1 X158.914 Y119.307 E13.48034
G1 X158.819 Y118.735 E13.52084
G1 X158.8 Y118.336 E13.54874
G1 X158.8 Y105.7 E14.43132
G1 X37.164 Y105.7 E22.92714
G1 X36.586 Y105.66 E22.96761
G1 X36.019 Y105.541 E23.00808
G1 X35.474 Y105.345 E23.04853
G1 X34.961 Y105.076 E23.08899
G1 X34.49 Y104.739 E23.12944
G1 X34.194 Y104.47 E23.15738
G1 X34.03 Y104.306 E23.17357
G1 X33.65 Y103.869 E23.21402
G1 X33.333 Y103.384 E23.25449
G1 X33.086 Y102.86 E23.29495
G1 X32.914 Y102.307 E23.3354
G1 X32.819 Y101.735 E23.3759
G1 X32.8 Y101.336 E23.4038
G1 X32.8 Y91.664 E24.07936
G1 X32.84 Y91.086 E24.11983
G1 X32.959 Y90.519 E24.16029
G1 X33.155 Y89.974 E24.20074
G1 X33.424 Y89.461 E24.2412
G1 X33.761 Y88.99 E24.28165
G1 X34.03 Y88.694 E24.30959
G1 X34.194 Y88.53 E24.32579
G1 X34.631 Y88.15 E24.36624
G1 X35.116 Y87.833 E24.40671
G1 X35.64 Y87.586 E24.44717
M204 S3000
M205 X10 Y10
G0 F3000 X35.948 Y88.069
M204 S1800
M205 X8 Y8
G1 F2400 X36.468 Y87.927 E24.48482
G1 X37.164 Y87.86 E24.53366
G1 X172.836 Y87.86 E34.00984
G1 X173.374 Y87.9 E34.04752
G1 X173.9 Y88.019 E34.08519
G1 X174.402 Y88.214 E34.12281
G1 X174.871 Y88.482 E34.16054
G1 X175.294 Y88.815 E34.19814
G1 X175.664 Y89.208 E34.23584
G1 X175.971 Y89.651 E34.27348
G1 X176.21 Y90.135 E34.31119
G1 X176.375 Y90.648 E34.34882
G1 X176.462 Y91.18 E34.38648
G1 X176.476 Y91.478 E34.40731
G1 X176.64 Y118.314 E36.28174
G1 X176.603 Y118.852 E36.31941
G1 X176.488 Y119.378 E36.35702
G1 X176.295 Y119.882 E36.39471
G1 X176.031 Y120.352 E36.43236
G1 X175.574 Y120.91 E36.48274
G1 X175.41 Y121.074 E36.49894
G1 X175.001 Y121.426 E36.53663
G1 X174.545 Y121.714 E36.5743
G1 X174.052 Y121.931 E36.61192
G1 X173.532 Y122.073 E36.64957
G1 X172.836 Y122.14 E36.69841
G1 X163.164 Y122.14 E37.37396
G1 X162.626 Y122.1 E37.41165
G1 X162.1 Y121.981 E37.44931
G1 X161.598 Y121.786 E37.48693
G1 X161.129 Y121.518 E37.52466
G1 X160.59 Y121.074 E37.57343
G1 X160.426 Y120.91 E37.58963
G1 X160.074 Y120.501 E37.62732
G1 X159.786 Y120.045 E37.66499
G1 X159.569 Y119.552 E37.70262
G1 X159.427 Y119.032 E37.74027
G1 X159.36 Y118.336 E37.7891
G1 X159.36 Y105.14 E38.71079
G1 X37.164 Y105.14 E47.24573
G1 X36.626 Y105.1 E47.28341
G1 X36.1 Y104.981 E47.32108
G1 X35.598 Y104.786 E47.35869
G1 X35.129 Y104.518 E47.39642
G1 X34.59 Y104.074 E47.4452
G1 X34.426 Y103.91 E47.4614
G1 X34.074 Y103.501 E47.49909
G1 X33.786 Y103.045 E47.53676
G1 X33.569 Y102.552 E47.57438
G1 X33.427 Y102.032 E47.61203
G1 X33.36 Y101.336 E47.66087
G1 X33.36 Y91.664 E48.33642
G1 X33.4 Y91.126 E48.3741
G1 X33.519 Y90.6 E48.41177
G1 X33.714 Y90.098 E48.44939
G1 X33.982 Y89.629 E48.48712
G1 X34.426 Y89.09 E48.53589
G1 X34.59 Y88.926 E48.55209
G1 X34.999 Y88.574 E48.58978
G1 X35.455 Y88.286 E48.62745
G1 X35.948 Y88.069 E48.66507
M204 S3000
M205 X10 Y10
G0 F3000 X36.249 Y88.559
M204 S1800
M205 X8 Y8
G1 F2400 X36.732 Y88.45 E48.69966
G1 X37.164 Y88.42 E48.7299
G1 X172.836 Y88.42 E58.20609
G1 X173.33 Y88.46 E58.24071
G1 X173.812 Y88.579 E58.27538
G1 X174.268 Y88.773 E58.30999
G1 X174.687 Y89.038 E58.34462
G1 X175.058 Y89.368 E58.3793
G1 X175.372 Y89.752 E58.41395
G1 X175.62 Y90.182 E58.44862
G1 X175.795 Y90.645 E58.48319
G1 X175.894 Y91.132 E58.5179
G1 X175.916 Y91.481 E58.54233
G1 X176.08 Y118.317 E60.41676
G1 X176.043 Y118.812 E60.45143
G1 X175.927 Y119.294 E60.48605
G1 X175.735 Y119.751 E60.52068
G1 X175.473 Y120.172 E60.55531
G1 X175.178 Y120.514 E60.58686
G1 X175.014 Y120.678 E60.60306
G1 X174.636 Y120.999 E60.63769
G1 X174.212 Y121.256 E60.67233
G1 X173.751 Y121.441 E60.70702
G1 X173.268 Y121.55 E60.7416
G1 X172.836 Y121.58 E60.77185
G1 X163.164 Y121.58 E61.4474
G1 X162.67 Y121.54 E61.48202
G1 X162.188 Y121.421 E61.5167
G1 X161.732 Y121.227 E61.55131
G1 X161.313 Y120.962 E61.58594
G1 X160.986 Y120.678 E61.61619
G1 X160.822 Y120.514 E61.63239
G1 X160.501 Y120.136 E61.66703
G1 X160.244 Y119.712 E61.70166
G1 X160.059 Y119.251 E61.73635
G1 X159.95 Y118.768 E61.77094
G1 X159.92 Y118.336 E61.80118
G1 X159.92 Y104.58 E62.76199
G1 X37.164 Y104.58 E71.33604
G1 X36.67 Y104.54 E71.37065
G1 X36.188 Y104.421 E71.40533
G1 X35.732 Y104.227 E71.43994
G1 X35.313 Y103.962 E71.47457
G1 X34.986 Y103.678 E71.50482
G1 X34.822 Y103.514 E71.52102
G1 X34.501 Y103.136 E71.55566
G1 X34.244 Y102.712 E71.59029
G1 X34.059 Y102.251 E71.62498
G1 X33.95 Y101.768 E71.65957
G1 X33.92 Y101.336 E71.68982
G1 X33.92 Y91.664 E72.36537
G1 X33.96 Y91.17 E72.39999
G1 X34.079 Y90.688 E72.43466
G1 X34.273 Y90.232 E72.46927
G1 X34.538 Y89.813 E72.5039
G1 X34.822 Y89.486 E72.53415
G1 X34.986 Y89.322 E72.55035
G1 X35.364 Y89.001 E72.58499
G1 X35.788 Y88.744 E72.61962
G1 X36.249 Y88.559 E72.65432
M204 S3000
M205 X10 Y10
G0 F3000 X36.116 Y89.208
M204 S1800
M205 X8 Y8
G1 F2400 X36.539 Y89.059 E72.68564
G1 X37.164 Y88.98 E72.72964
G1 X172.836 Y88.98 E82.20583
G1 X173.283 Y89.02 E82.23717
G1 X173.715 Y89.138 E82.26845
G1 X174.12 Y89.332 E82.29982
G1 X174.484 Y89.594 E82.33114
G1 X174.796 Y89.916 E82.36246
G1 X175.046 Y90.289 E82.39382
G1 X175.226 Y90.7 E82.42516
G1 X175.33 Y91.136 E82.45647
G1 X175.356 Y91.485 E82.48091
G1 X175.52 Y118.321 E84.35534
G1 X175.483 Y118.768 E84.38667
G1 X175.367 Y119.201 E84.41798
G1 X175.176 Y119.607 E84.44932
G1 X174.782 Y120.118 E84.49439
G1 X174.618 Y120.282 E84.51059
G1 X174.274 Y120.57 E84.54192
G1 X173.884 Y120.792 E84.57327
G1 X173.461 Y120.941 E84.60459
G1 X172.836 Y121.02 E84.64859
G1 X163.164 Y121.02 E85.32415
G1 X162.717 Y120.98 E85.35549
G1 X162.285 Y120.862 E85.38677
G1 X161.88 Y120.668 E85.41814
G1 X161.382 Y120.282 E85.46215
G1 X161.218 Y120.118 E85.47834
G1 X160.93 Y119.774 E85.50968
G1 X160.708 Y119.384 E85.54103
G1 X160.559 Y118.961 E85.57235
G1 X160.48 Y118.336 E85.61635
G1 X160.48 Y104.02 E86.61627
G1 X37.164 Y104.02 E95.22943
G1 X36.717 Y103.98 E95.26078
G1 X36.285 Y103.862 E95.29206
G1 X35.88 Y103.668 E95.32342
G1 X35.382 Y103.282 E95.36743
G1 X35.218 Y103.118 E95.38363
G1 X34.93 Y102.774 E95.41497
G1 X34.708 Y102.384 E95.44631
G1 X34.559 Y101.961 E95.47764
G1 X34.48 Y101.336 E95.52164
G1 X34.48 Y91.664 E96.19719
G1 X34.52 Y91.217 E96.22854
G1 X34.638 Y90.785 E96.25982
G1 X34.832 Y90.38 E96.29118
G1 X35.218 Y89.882 E96.33519
G1 X35.382 Y89.718 E96.35139
G1 X35.726 Y89.43 E96.38273
G1 X36.116 Y89.208 E96.41407
M204 S3000
M205 X10 Y10
G0 F3000 X36.435 Y89.681
M204 S1800
M205 X8 Y8
G1 F2400 X36.815 Y89.571 E96.4417
G1 X37.164 Y89.54 E96.46617
G1 X172.836 Y89.54 E105.94236
G1 X173.229 Y89.58 E105.96995
G1 X173.607 Y89.698 E105.99761
G1 X173.953 Y89.889 E106.02521
G1 X174.254 Y90.146 E106.05286
G1 X174.496 Y90.459 E106.08049
G1 X174.672 Y90.813 E106.10811
G1 X174.772 Y91.196 E106.13575
G1 X174.796 Y91.488 E106.15622
G1 X174.96 Y118.324 E108.03065
G1 X174.922 Y118.718 E108.05829
G1 X174.807 Y119.096 E108.08589
G1 X174.617 Y119.443 E108.11352
G1 X174.386 Y119.722 E108.13882
G1 X174.222 Y119.886 E108.15502
G1 X173.916 Y120.136 E108.18262
G1 X173.565 Y120.319 E108.21027
G1 X173.185 Y120.429 E108.2379
G1 X172.836 Y120.46 E108.26237
G1 X163.164 Y120.46 E108.93793
G1 X162.771 Y120.42 E108.96552
G1 X162.393 Y120.302 E108.99318
G1 X162.047 Y120.111 E109.02078
G1 X161.778 Y119.886 E109.04528
G1 X161.614 Y119.722 E109.06147
G1 X161.364 Y119.416 E109.08907
G1 X161.181 Y119.065 E109.11672
G1 X161.071 Y118.685 E109.14435
G1 X161.04 Y118.336 E109.16883
G1 X161.04 Y103.46 E110.20786
G1 X37.164 Y103.46 E118.86014
G1 X36.771 Y103.42 E118.88773
G1 X36.393 Y103.302 E118.91539
G1 X36.047 Y103.111 E118.94299
G1 X35.778 Y102.886 E118.96749
G1 X35.614 Y102.722 E118.98369
G1 X35.364 Y102.416 E119.01128
G1 X35.181 Y102.065 E119.03893
G1 X35.071 Y101.685 E119.06656
G1 X35.04 Y101.336 E119.09104
G1 X35.04 Y91.664 E119.76659
G1 X35.08 Y91.271 E119.79418
G1 X35.198 Y90.893 E119.82184
G1 X35.389 Y90.547 E119.84944
G1 X35.614 Y90.278 E119.87394
G1 X35.778 Y90.114 E119.89014
G1 X36.084 Y89.864 E119.91774
G1 X36.435 Y89.681 E119.94538
M204 S3000
M205 X10 Y10
G0 F3000 X36.741 Y90.165
M204 S1800
M205 X8 Y8
G1 F2400 X37.164 Y90.1 E119.97528
G1 X172.836 Y90.1 E129.45146
G1 X173.168 Y90.14 E129.47482
G1 X173.48 Y90.257 E129.49809
G1 X173.757 Y90.445 E129.52147
G1 X173.98 Y90.693 E129.54477
G1 X174.139 Y90.987 E129.56812
G1 X174.223 Y91.311 E129.59149
G1 X174.236 Y91.491 E129.6041
G1 X174.4 Y118.327 E131.47853
G1 X174.362 Y118.659 E131.50187
G1 X174.247 Y118.973 E131.52523
G1 X173.99 Y119.326 E131.55572
G1 X173.826 Y119.49 E131.57192
G1 X173.563 Y119.696 E131.59526
G1 X173.259 Y119.835 E131.6186
G1 X172.836 Y119.9 E131.6485
G1 X163.164 Y119.9 E132.32405
G1 X162.832 Y119.86 E132.34741
G1 X162.52 Y119.743 E132.37068
G1 X162.174 Y119.49 E132.40062
G1 X162.01 Y119.326 E132.41682
G1 X161.804 Y119.063 E132.44015
G1 X161.665 Y118.759 E132.4635
G1 X161.6 Y118.336 E132.49339
G1 X161.6 Y102.9 E133.57154
G1 X37.164 Y102.9 E142.26293
G1 X36.832 Y102.86 E142.28629
G1 X36.52 Y102.743 E142.30956
G1 X36.174 Y102.49 E142.3395
G1 X36.01 Y102.326 E142.3557
G1 X35.804 Y102.063 E142.37903
G1 X35.665 Y101.759 E142.40238
G1 X35.6 Y101.336 E142.43227
G1 X35.6 Y91.664 E143.10782
G1 X35.64 Y91.332 E143.13118
G1 X35.757 Y91.02 E143.15446
G1 X36.01 Y90.674 E143.18439
G1 X36.174 Y90.51 E143.20059
G1 X36.437 Y90.304 E143.22393
G1 X36.741 Y90.165 E143.24727
M204 S3000
M205 X10 Y10
G0 F3000 X36.779 Y90.754
M204 S1800
M205 X8 Y8
G1 F2400 X37.024 Y90.672 E143.26532
G1 X37.164 Y90.66 E143.27513
G1 X172.836 Y90.66 E152.75132
G1 X173.091 Y90.7 E152.76935
G1 X173.323 Y90.815 E152.78743
G1 X173.508 Y90.996 E152.80551
G1 X173.629 Y91.224 E152.82354
G1 X173.676 Y91.495 E152.84275
G1 X173.84 Y118.331 E154.71718
G1 X173.802 Y118.586 E154.73519
G1 X173.688 Y118.818 E154.75324
G1 X173.594 Y118.93 E154.76346
G1 X173.43 Y119.094 E154.77966
G1 X173.221 Y119.246 E154.79771
G1 X172.976 Y119.328 E154.81575
G1 X172.836 Y119.34 E154.82557
G1 X163.164 Y119.34 E155.50112
G1 X162.909 Y119.3 E155.51915
G1 X162.677 Y119.185 E155.53723
G1 X162.57 Y119.094 E155.54704
G1 X162.406 Y118.93 E155.56324
G1 X162.254 Y118.721 E155.58129
G1 X162.172 Y118.476 E155.59934
G1 X162.16 Y118.336 E155.60915
G1 X162.16 Y102.34 E156.72641
G1 X37.164 Y102.34 E165.45692
G1 X36.909 Y102.3 E165.47495
G1 X36.677 Y102.185 E165.49303
G1 X36.57 Y102.094 E165.50285
G1 X36.406 Y101.93 E165.51905
G1 X36.254 Y101.721 E165.5371
G1 X36.172 Y101.476 E165.55514
G1 X36.16 Y101.336 E165.56496
G1 X36.16 Y91.664 E166.24051
G1 X36.2 Y91.409 E166.25854
G1 X36.315 Y91.177 E166.27662
G1 X36.406 Y91.07 E166.28643
G1 X36.57 Y90.906 E166.30263
G1 X36.779 Y90.754 E166.32068
M204 S3000
M205 X10 Y10
G0 F3000 X37.164 Y91.22
M204 S1800
M205 X8 Y8
G1 F2400 X172.836 Y91.22 E175.79687
G1 X172.979 Y91.259 E175.80722
G1 X173.082 Y91.366 E175.81759
G1 X173.116 Y91.498 E175.82712
G1 X173.28 Y118.334 E177.70155
G1 X173.198 Y118.534 E177.71664
G1 X173.034 Y118.698 E177.73284
G1 X172.836 Y118.78 E177.74781
G1 X163.164 Y118.78 E178.42336
G1 X162.966 Y118.698 E178.43833
G1 X162.802 Y118.534 E178.45453
G1 X162.72 Y118.336 E178.4695
G1 X162.72 Y101.78 E179.62588
G1 X37.164 Y101.78 E188.3955
G1 X36.966 Y101.698 E188.41047
G1 X36.802 Y101.534 E188.42666
G1 X36.72 Y101.336 E188.44163
G1 X36.72 Y91.664 E189.11719
G1 X36.802 Y91.466 E189.13216
G1 X36.966 Y91.302 E189.14835
G1 X37.164 Y91.22 E189.16332
M204 S3000
M205 X10 Y10
G1 F2400 E183.16332
;MESH:haltestab.stl
G0 F3000 X37.854 Y92.354
G0 X163.28 Y100.56
G0 X163.28 Y101.22
M204 S1800
M205 X8 Y8
;TYPE:WALL-OUTER
G1 F2400 E189.16332
G1 F1800 X37.28 Y101.22 E197.96395
G1 X37.28 Y91.78 E198.6233
G1 X172.72 Y91.78 E208.08328
G1 X172.72 Y118.22 E209.93002
G1 X163.28 Y118.22 E210.58937
G1 X163.28 Y101.22 E211.77676
M204 S3000
M205 X10 Y10
G0 F3000 X163.08 Y101.22
G0 X163.84 Y100.66
M204 S1800
M205 X8 Y8
;TYPE:WALL-INNER
G1 F1800 X37.84 Y100.66 E220.57739
G1 X37.84 Y92.34 E221.15851
G1 X172.16 Y92.34 E230.54026
G1 X172.16 Y117.66 E232.30877
G1 X163.84 Y117.66 E232.88989
G1 X163.84 Y100.66 E234.07728
M204 S3000
M205 X10 Y10
G0 F3000 X164.4 Y100.1
M204 S1800
M205 X8 Y8
G1 F1800 X38.4 Y100.1 E242.87791
G1 X38.4 Y92.9 E243.3808
G1 X171.6 Y92.9 E252.68433
G1 X171.6 Y117.1 E254.37461
G1 X164.4 Y117.1 E254.8775
G1 X164.4 Y100.1 E256.06489
M204 S3000
M205 X10 Y10
G0 F3000 X164.95 Y99.55
M204 S1800
M205 X8 Y8
;TYPE:SKIN
G1 F1800 X38.95 Y99.55 E264.86552
G1 X38.95 Y93.45 E265.29158
G1 X171.05 Y93.45 E274.51828
G1 X171.05 Y116.55 E276.13172
G1 X164.95 Y116.55 E276.55779
G1 X164.95 Y99.55 E277.74517
M204 S3000
M205 X10 Y10
G0 F3000 X170.789 Y93.969
M204 S1800
M205 X8 Y8
G1 F1800 X170.53 Y93.71 E277.77076
M204 S3000
M205 X10 Y10
G0 F3000 X169.738 Y93.71
M204 S1800
M205 X8 Y8
G1 F1800 X170.789 Y94.761 E277.87457
M204 S3000
M205 X10 Y10
G0 F3000 X170.789 Y95.553
M204 S1800
M205 X8 Y8
G1 F1800 X168.946 Y93.71 E278.05662
M204 S3000
M205 X10 Y10
G0 F3000 X168.154 Y93.71
M204 S1800
M205 X8 Y8
G1 F1800 X170.789 Y96.345 E278.3169
M204 S3000
M205 X10 Y10
G0 F3000 X170.789 Y97.137
M204 S1800
M205 X8 Y8
G1 F1800 X167.362 Y93.71 E278.65541
M204 S3000
M205 X10 Y10
G0 F3000 X166.57 Y93.71
M204 S1800
M205 X8 Y8
G1 F1800 X170.789 Y97.929 E279.07215
M204 S3000
M205 X10 Y10
G0 F3000 X170.789 Y98.721
M204 S1800
M205 X8 Y8
G1 F1800 X165.778 Y93.71 E279.56713
M204 S3000
M205 X10 Y10
G0 F3000 X164.986 Y93.71
M204 S1800
M205 X8 Y8
G1 F1800 X170.789 Y99.513 E280.14033
M204 S3000
M205 X10 Y10
G0 F3000 X170.789 Y100.305
M204 S1800
M205 X8 Y8
G1 F1800 X164.194 Y93.71 E280.79177
M204 S3000
M205 X10 Y10
G0 F3000 X163.402 Y93.71
M204 S1800
M205 X8 Y8
G1 F1800 X170.789 Y101.097 E281.52144
M204 S3000
M205 X10 Y10
G0 F3000 X170.789 Y101.889
M204 S1800
M205 X8 Y8
G1 F1800 X162.61 Y93.71 E282.32934
M204 S3000
M205 X10 Y10
G0 F3000 X161.818 Y93.71
M204 S1800
M205 X8 Y8
G1 F1800 X170.789 Y102.681 E283.21548
M204 S3000
M205 X10 Y10
G0 F3000 X170.789 Y103.473
M204 S1800
M205 X8 Y8
G1 F1800 X161.026 Y93.71 E284.17984
M204 S3000
M205 X10 Y10
G0 F3000 X160.234 Y93.71
M204 S1800
M205 X8 Y8
G1 F1800 X170.789 Y104.265 E285.22244
M204 S3000
M205 X10 Y10
G0 F3000 X170.789 Y105.056
M204 S1800
M205 X8 Y8
G1 F1800 X165.209 Y99.476 E285.77362
M204 S3000
M205 X10 Y10
G0 F3000 X165.021 Y99.289
M204 S1800
M205 X8 Y8
G1 F1800 X159.442 Y93.71 E286.3247
M204 S3000
M205 X10 Y10
G0 F3000 X158.65 Y93.71
