;FLAVOR:Marlin
;TIME:7203
;Filament used: 12.6926m
;Layer height: 0.3
;MINX:47.8
;MINY:83.05
;MINZ:0.3
;MAXX:162.2
;MAXY:126.95
;MAXZ:57
;Generated with Cura_SteamEngine 4.4.0
M140 S60
M105
M190 S60
M104 S200
M105
M109 S200
M82 ;absolute extrusion mode
G21 ;metric values
G90 ;absolute positioning
M82 ;set extruder to absolute mode
M107 ;start with the fan off
G28 X0 Y0 ;move X/Y to min endstops
G28 Z0 ;move Z to min endstops
G1 Z15.0 F100 ;move the platform down 15mm
G92 E0 ;zero the extruded length
G1 F200 E3 ;extrude 3mm of feed stock
G92 E0 ;zero the extruded length again
G1 F100
G0 Y20 F100
M117 Printing...
G5
G92 E0
G92 E0
G1 F2400 E-6
;LAYER_COUNT:190
;LAYER:0
M106 S255
M204 S3000
M205 X10 Y10
G1 F600 Z0.375
G0 F3000 X50.116 Y83.597 Z0.375
M204 S1800
M205 X8 Y8
;TYPE:SKIRT
G1 F600 Z0.3
G1 F2400 E0
G1 X50.64 Y83.35 E0.04046
G1 X51.193 Y83.178 E0.08091
G1 X51.765 Y83.083 E0.12141
G1 X52.161 Y83.064 E0.1491
G1 X69.833 Y83.05 E1.38343
G1 X70.411 Y83.089 E1.42389
G1 X70.978 Y83.208 E1.46435
G1 X71.523 Y83.404 E1.50481
G1 X72.036 Y83.672 E1.54523
G1 X72.508 Y84.009 E1.58574
G1 X72.806 Y84.28 E1.61388
G1 X72.97 Y84.444 E1.63008
G1 X73.35 Y84.881 E1.67052
G1 X73.667 Y85.366 E1.71099
G1 X73.914 Y85.89 E1.75146
G1 X74.086 Y86.443 E1.79191
G1 X74.181 Y87.015 E1.8324
G1 X74.2 Y87.414 E1.8603
G1 X74.2 Y112.55 E3.61596
G1 X135.8 Y112.55 E7.91849
G1 X135.8 Y87.414 E9.67415
G1 X135.84 Y86.836 E9.71462
G1 X135.959 Y86.269 E9.75508
G1 X136.155 Y85.724 E9.79553
G1 X136.424 Y85.211 E9.83599
G1 X136.761 Y84.74 E9.87644
G1 X137.03 Y84.444 E9.90438
G1 X137.194 Y84.28 E9.92058
G1 X137.631 Y83.9 E9.96103
G1 X138.116 Y83.583 E10.0015
G1 X138.64 Y83.336 E10.04196
G1 X139.193 Y83.164 E10.08241
G1 X139.765 Y83.069 E10.12291
G1 X140.164 Y83.05 E10.15081
G1 X157.836 Y83.05 E11.38513
G1 X158.414 Y83.09 E11.4256
G1 X158.981 Y83.209 E11.46607
G1 X159.526 Y83.405 E11.50652
G1 X160.039 Y83.674 E11.54698
G1 X160.51 Y84.011 E11.58743
G1 X160.806 Y84.28 E11.61537
G1 X160.97 Y84.444 E11.63157
G1 X161.35 Y84.881 E11.67201
G1 X161.667 Y85.366 E11.71248
G1 X161.914 Y85.89 E11.75295
G1 X162.086 Y86.443 E11.7934
G1 X162.181 Y87.015 E11.8339
G1 X162.2 Y87.414 E11.8618
G1 X162.2 Y89.586 E12.0135
G1 X162.16 Y90.164 E12.05397
G1 X162.041 Y90.731 E12.09443
G1 X161.845 Y91.276 E12.13489
G1 X161.576 Y91.789 E12.17535
G1 X161.239 Y92.26 E12.2158
G1 X160.97 Y92.556 E12.24373
G1 X160.806 Y92.72 E12.25993
G1 X160.369 Y93.1 E12.30038
G1 X159.884 Y93.417 E12.34085
G1 X159.36 Y93.664 E12.38131
G1 X158.807 Y93.836 E12.42176
G1 X158.235 Y93.931 E12.46226
G1 X157.836 Y93.95 E12.49016
G1 X152.2 Y93.95 E12.88382
G1 X152.2 Y119.586 E14.6744
G1 X152.16 Y120.164 E14.71486
G1 X152.041 Y120.731 E14.75533
G1 X151.845 Y121.276 E14.79578
G1 X151.576 Y121.789 E14.83624
G1 X151.239 Y122.26 E14.87669
G1 X150.97 Y122.556 E14.90463
G1 X150.806 Y122.72 E14.92083
G1 X150.369 Y123.1 E14.96128
G1 X149.884 Y123.417 E15.00175
G1 X149.36 Y123.664 E15.04221
G1 X148.807 Y123.836 E15.08266
G1 X148.235 Y123.931 E15.12316
G1 X147.836 Y123.95 E15.15106
G1 X142.962 Y123.95 E15.49149
G1 X142.845 Y124.276 E15.51568
G1 X142.576 Y124.789 E15.55614
G1 X142.239 Y125.26 E15.59659
G1 X141.97 Y125.556 E15.62453
G1 X141.806 Y125.72 E15.64073
G1 X141.369 Y126.1 E15.68118
G1 X140.884 Y126.417 E15.72164
G1 X140.36 Y126.664 E15.76211
G1 X139.807 Y126.836 E15.80256
G1 X139.235 Y126.931 E15.84306
G1 X138.836 Y126.95 E15.87096
G1 X129.164 Y126.95 E16.54651
G1 X128.586 Y126.91 E16.58698
G1 X128.019 Y126.791 E16.62744
G1 X127.474 Y126.595 E16.6679
G1 X126.961 Y126.326 E16.70835
G1 X126.49 Y125.989 E16.74881
G1 X126.194 Y125.72 E16.77674
G1 X126.03 Y125.556 E16.79294
G1 X125.65 Y125.119 E16.83339
G1 X125.333 Y124.634 E16.87386
G1 X125.086 Y124.11 E16.91432
G1 X125.036 Y123.95 E16.92603
G1 X84.962 Y123.95 E19.72505
G1 X84.845 Y124.276 E19.74924
G1 X84.576 Y124.789 E19.7897
G1 X84.239 Y125.26 E19.83015
G1 X83.97 Y125.556 E19.85809
G1 X83.806 Y125.72 E19.87429
G1 X83.369 Y126.1 E19.91474
G1 X82.884 Y126.417 E19.95521
G1 X82.36 Y126.664 E19.99567
G1 X81.807 Y126.836 E20.03612
G1 X81.235 Y126.931 E20.07662
G1 X80.836 Y126.95 E20.10452
G1 X71.164 Y126.95 E20.78007
G1 X70.586 Y126.91 E20.82054
G1 X70.019 Y126.791 E20.861
G1 X69.474 Y126.595 E20.90146
G1 X68.961 Y126.326 E20.94192
G1 X68.49 Y125.989 E20.98237
G1 X68.194 Y125.72 E21.0103
G1 X68.03 Y125.556 E21.0265
G1 X67.65 Y125.119 E21.06695
G1 X67.333 Y124.634 E21.10742
G1 X67.086 Y124.11 E21.14788
G1 X67.036 Y123.95 E21.15959
G1 X62.164 Y123.95 E21.49988
G1 X61.586 Y123.91 E21.54035
G1 X61.019 Y123.791 E21.58082
G1 X60.474 Y123.595 E21.62127
G1 X59.961 Y123.326 E21.66173
G1 X59.49 Y122.989 E21.70218
G1 X59.194 Y122.72 E21.73011
G1 X59.03 Y122.556 E21.74631
G1 X58.65 Y122.119 E21.78676
G1 X58.333 Y121.634 E21.82723
G1 X58.086 Y121.11 E21.86769
G1 X57.914 Y120.557 E21.90814
G1 X57.819 Y119.985 E21.94864
G1 X57.8 Y119.586 E21.97654
G1 X57.8 Y93.95 E23.76712
G1 X52.164 Y93.95 E24.16078
G1 X51.586 Y93.91 E24.20124
G1 X51.019 Y93.791 E24.24171
G1 X50.474 Y93.595 E24.28216
G1 X49.961 Y93.326 E24.32262
G1 X49.49 Y92.989 E24.36307
G1 X49.194 Y92.72 E24.39101
G1 X49.03 Y92.556 E24.40721
G1 X48.65 Y92.119 E24.44766
G1 X48.333 Y91.634 E24.48813
G1 X48.086 Y91.11 E24.52859
G1 X47.914 Y90.557 E24.56904
G1 X47.819 Y89.985 E24.60954
G1 X47.8 Y89.586 E24.63744
G1 X47.8 Y87.428 E24.78817
G1 X47.84 Y86.85 E24.82863
G1 X47.959 Y86.283 E24.8691
G1 X48.155 Y85.738 E24.90955
G1 X48.424 Y85.225 E24.95001
G1 X48.761 Y84.754 E24.99046
G1 X49.03 Y84.458 E25.0184
G1 X49.194 Y84.294 E25.0346
G1 X49.631 Y83.914 E25.07505
G1 X50.116 Y83.597 E25.11552
M204 S3000
M205 X10 Y10
G0 F3000 X50.455 Y84.05
M204 S1800
M205 X8 Y8
G1 F2400 X50.948 Y83.833 E25.15314
G1 X51.468 Y83.691 E25.19079
G1 X52.161 Y83.624 E25.23942
G1 X69.833 Y83.61 E26.47374
G1 X70.371 Y83.65 E26.51142
G1 X70.897 Y83.768 E26.54908
G1 X71.4 Y83.963 E26.58676
G1 X71.868 Y84.23 E26.62439
G1 X72.41 Y84.676 E26.67342
G1 X72.574 Y84.84 E26.68962
G1 X72.926 Y85.249 E26.72731
G1 X73.214 Y85.705 E26.76498
G1 X73.431 Y86.198 E26.8026
G1 X73.573 Y86.718 E26.84025
G1 X73.64 Y87.414 E26.88909
G1 X73.64 Y113.11 E28.68386
G1 X136.36 Y113.11 E33.06461
G1 X136.36 Y87.414 E34.85938
G1 X136.4 Y86.876 E34.89707
G1 X136.519 Y86.35 E34.93473
G1 X136.714 Y85.848 E34.97235
G1 X136.982 Y85.379 E35.01008
G1 X137.426 Y84.84 E35.05885
G1 X137.59 Y84.676 E35.07505
G1 X137.999 Y84.324 E35.11274
G1 X138.455 Y84.036 E35.15041
G1 X138.948 Y83.819 E35.18804
G1 X139.468 Y83.677 E35.22569
G1 X140.164 Y83.61 E35.27452
G1 X157.836 Y83.61 E36.50885
G1 X158.374 Y83.65 E36.54653
G1 X158.9 Y83.769 E36.5842
G1 X159.402 Y83.964 E36.62181
G1 X159.871 Y84.232 E36.65954
G1 X160.41 Y84.676 E36.70831
G1 X160.574 Y84.84 E36.72451
G1 X160.926 Y85.249 E36.7622
G1 X161.214 Y85.705 E36.79987
G1 X161.431 Y86.198 E36.8375
G1 X161.573 Y86.718 E36.87515
G1 X161.64 Y87.414 E36.92398
G1 X161.64 Y89.586 E37.07569
G1 X161.6 Y90.124 E37.11337
G1 X161.481 Y90.65 E37.15104
G1 X161.286 Y91.152 E37.18866
G1 X161.018 Y91.621 E37.22638
G1 X160.574 Y92.16 E37.27516
G1 X160.41 Y92.324 E37.29136
G1 X160.001 Y92.676 E37.32905
G1 X159.545 Y92.964 E37.36672
G1 X159.052 Y93.181 E37.40434
G1 X158.532 Y93.323 E37.44199
G1 X157.836 Y93.39 E37.49083
G1 X151.64 Y93.39 E37.9236
G1 X151.64 Y119.586 E39.75329
G1 X151.6 Y120.124 E39.79097
G1 X151.481 Y120.65 E39.82864
G1 X151.286 Y121.152 E39.86625
G1 X151.018 Y121.621 E39.90398
G1 X150.574 Y122.16 E39.95276
G1 X150.41 Y122.324 E39.96896
G1 X150.001 Y122.676 E40.00665
G1 X149.545 Y122.964 E40.04432
G1 X149.052 Y123.181 E40.08194
G1 X148.532 Y123.323 E40.11959
G1 X147.836 Y123.39 E40.16843
G1 X142.54 Y123.39 E40.53833
G1 X142.481 Y123.65 E40.55696
G1 X142.286 Y124.152 E40.59457
G1 X142.018 Y124.621 E40.6323
G1 X141.574 Y125.16 E40.68108
G1 X141.41 Y125.324 E40.69728
G1 X141.001 Y125.676 E40.73497
G1 X140.545 Y125.964 E40.77264
G1 X140.052 Y126.181 E40.81026
G1 X139.532 Y126.323 E40.84791
G1 X138.836 Y126.39 E40.89675
G1 X129.164 Y126.39 E41.5723
G1 X128.626 Y126.35 E41.60998
G1 X128.1 Y126.231 E41.64765
G1 X127.598 Y126.036 E41.68526
G1 X127.129 Y125.768 E41.72299
G1 X126.59 Y125.324 E41.77177
G1 X126.426 Y125.16 E41.78797
G1 X126.074 Y124.751 E41.82566
G1 X125.786 Y124.295 E41.86333
G1 X125.569 Y123.802 E41.90095
G1 X125.456 Y123.39 E41.93079
G1 X84.54 Y123.39 E44.78862
G1 X84.481 Y123.65 E44.80724
G1 X84.286 Y124.152 E44.84486
G1 X84.018 Y124.621 E44.88259
G1 X83.574 Y125.16 E44.93136
G1 X83.41 Y125.324 E44.94756
G1 X83.001 Y125.676 E44.98525
G1 X82.545 Y125.964 E45.02292
G1 X82.052 Y126.181 E45.06054
G1 X81.532 Y126.323 E45.09819
G1 X80.836 Y126.39 E45.14703
G1 X71.164 Y126.39 E45.82258
G1 X70.626 Y126.35 E45.86027
G1 X70.1 Y126.231 E45.89793
G1 X69.598 Y126.036 E45.93555
G1 X69.129 Y125.768 E45.97328
G1 X68.59 Y125.324 E46.02205
G1 X68.426 Y125.16 E46.03825
G1 X68.074 Y124.751 E46.07594
G1 X67.786 Y124.295 E46.11361
G1 X67.569 Y123.802 E46.15123
G1 X67.456 Y123.39 E46.18107
G1 X62.164 Y123.39 E46.5507
G1 X61.626 Y123.35 E46.58838
G1 X61.1 Y123.231 E46.62605
G1 X60.598 Y123.036 E46.66366
G1 X60.129 Y122.768 E46.70139
G1 X59.59 Y122.324 E46.75017
G1 X59.426 Y122.16 E46.76637
G1 X59.074 Y121.751 E46.80406
G1 X58.786 Y121.295 E46.84173
G1 X58.569 Y120.802 E46.87935
G1 X58.427 Y120.282 E46.917
G1 X58.36 Y119.586 E46.96584
G1 X58.36 Y93.39 E48.79553
G1 X52.164 Y93.39 E49.2283
G1 X51.626 Y93.35 E49.26598
G1 X51.1 Y93.231 E49.30365
G1 X50.598 Y93.036 E49.34126
G1 X50.129 Y92.768 E49.37899
G1 X49.59 Y92.324 E49.42777
G1 X49.426 Y92.16 E49.44397
G1 X49.074 Y91.751 E49.48166
G1 X48.786 Y91.295 E49.51933
G1 X48.569 Y90.802 E49.55695
G1 X48.427 Y90.282 E49.5946
G1 X48.36 Y89.586 E49.64344
G1 X48.36 Y87.428 E49.79417
G1 X48.4 Y86.89 E49.83185
G1 X48.519 Y86.364 E49.86951
G1 X48.714 Y85.862 E49.90713
G1 X48.982 Y85.393 E49.94486
G1 X49.426 Y84.854 E49.99363
G1 X49.59 Y84.69 E50.00983
G1 X49.999 Y84.338 E50.04752
G1 X50.455 Y84.05 E50.08519
M204 S3000
M205 X10 Y10
G0 F3000 X50.788 Y84.508
M204 S1800
M205 X8 Y8
G1 F2400 X51.249 Y84.323 E50.11989
G1 X51.732 Y84.214 E50.15447
G1 X52.162 Y84.184 E50.18458
G1 X69.834 Y84.17 E51.4189
G1 X70.328 Y84.21 E51.45352
G1 X70.81 Y84.328 E51.48818
G1 X71.266 Y84.522 E51.52279
G1 X71.685 Y84.787 E51.55742
G1 X72.014 Y85.072 E51.58782
G1 X72.178 Y85.236 E51.60402
G1 X72.499 Y85.614 E51.63866
G1 X72.756 Y86.038 E51.67329
G1 X72.941 Y86.499 E51.70799
G1 X73.05 Y86.982 E51.74257
G1 X73.08 Y87.414 E51.77282
G1 X73.08 Y113.67 E53.6067
G1 X136.92 Y113.67 E58.06569
G1 X136.92 Y87.414 E59.89957
G1 X136.96 Y86.92 E59.93419
G1 X137.079 Y86.438 E59.96887
G1 X137.273 Y85.982 E60.00348
G1 X137.538 Y85.563 E60.03811
G1 X137.822 Y85.236 E60.06836
G1 X137.986 Y85.072 E60.08456
G1 X138.364 Y84.751 E60.11919
G1 X138.788 Y84.494 E60.15382
G1 X139.249 Y84.309 E60.18852
G1 X139.732 Y84.2 E60.2231
G1 X140.164 Y84.17 E60.25335
G1 X157.836 Y84.17 E61.48767
G1 X158.33 Y84.21 E61.52229
G1 X158.812 Y84.329 E61.55697
G1 X159.268 Y84.523 E61.59158
G1 X159.687 Y84.788 E61.62621
G1 X160.014 Y85.072 E61.65646
G1 X160.178 Y85.236 E61.67266
G1 X160.499 Y85.614 E61.70729
G1 X160.756 Y86.038 E61.74193
G1 X160.941 Y86.499 E61.77662
G1 X161.05 Y86.982 E61.8112
G1 X161.08 Y87.414 E61.84145
G1 X161.08 Y89.586 E61.99316
G1 X161.04 Y90.08 E62.02777
G1 X160.921 Y90.562 E62.06245
G1 X160.727 Y91.018 E62.09706
G1 X160.462 Y91.437 E62.13169
G1 X160.178 Y91.764 E62.16194
G1 X160.014 Y91.928 E62.17814
G1 X159.636 Y92.249 E62.21278
G1 X159.212 Y92.506 E62.24741
G1 X158.751 Y92.691 E62.2821
G1 X158.268 Y92.8 E62.31669
G1 X157.836 Y92.83 E62.34693
G1 X151.08 Y92.83 E62.81882
G1 X151.08 Y119.586 E64.68762
G1 X151.04 Y120.08 E64.72224
G1 X150.921 Y120.562 E64.75692
G1 X150.727 Y121.018 E64.79153
G1 X150.462 Y121.437 E64.82616
G1 X150.178 Y121.764 E64.85641
G1 X150.014 Y121.928 E64.87261
G1 X149.636 Y122.249 E64.90724
G1 X149.212 Y122.506 E64.94188
G1 X148.751 Y122.691 E64.97657
G1 X148.268 Y122.8 E65.01115
G1 X147.836 Y122.83 E65.0414
G1 X142.06 Y122.83 E65.44483
G1 X142.04 Y123.08 E65.46235
G1 X141.921 Y123.562 E65.49703
G1 X141.727 Y124.018 E65.53164
G1 X141.462 Y124.437 E65.56627
G1 X141.178 Y124.764 E65.59652
G1 X141.014 Y124.928 E65.61272
G1 X140.636 Y125.249 E65.64736
G1 X140.212 Y125.506 E65.68199
G1 X139.751 Y125.691 E65.71668
G1 X139.268 Y125.8 E65.75126
G1 X138.836 Y125.83 E65.78151
G1 X129.164 Y125.83 E66.45706
G1 X128.67 Y125.79 E66.49168
G1 X128.188 Y125.671 E66.52636
G1 X127.732 Y125.477 E66.56097
G1 X127.313 Y125.212 E66.5956
G1 X126.986 Y124.928 E66.62585
G1 X126.822 Y124.764 E66.64205
G1 X126.501 Y124.386 E66.67669
G1 X126.244 Y123.962 E66.71132
G1 X126.059 Y123.501 E66.74601
G1 X125.95 Y123.018 E66.7806
G1 X125.937 Y122.83 E66.79376
G1 X84.06 Y122.83 E69.71871
G1 X84.04 Y123.08 E69.73623
G1 X83.921 Y123.562 E69.77091
G1 X83.727 Y124.018 E69.80552
G1 X83.462 Y124.437 E69.84015
G1 X83.178 Y124.764 E69.8704
G1 X83.014 Y124.928 E69.8866
G1 X82.636 Y125.249 E69.92123
G1 X82.212 Y125.506 E69.95586
G1 X81.751 Y125.691 E69.99056
G1 X81.268 Y125.8 E70.02514
G1 X80.836 Y125.83 E70.05539
G1 X71.164 Y125.83 E70.73094
G1 X70.67 Y125.79 E70.76556
G1 X70.188 Y125.671 E70.80024
G1 X69.732 Y125.477 E70.83485
G1 X69.313 Y125.212 E70.86948
G1 X68.986 Y124.928 E70.89973
G1 X68.822 Y124.764 E70.91593
G1 X68.501 Y124.386 E70.95056
G1 X68.244 Y123.962 E70.98519
G1 X68.059 Y123.501 E71.01989
G1 X67.95 Y123.018 E71.05447
G1 X67.937 Y122.83 E71.06764
G1 X62.164 Y122.83 E71.47086
G1 X61.67 Y122.79 E71.50548
G1 X61.188 Y122.671 E71.54015
G1 X60.732 Y122.477 E71.57476
G1 X60.313 Y122.212 E71.60939
G1 X59.986 Y121.928 E71.63964
G1 X59.822 Y121.764 E71.65584
G1 X59.501 Y121.386 E71.69048
G1 X59.244 Y120.962 E71.72511
G1 X59.059 Y120.501 E71.75981
G1 X58.95 Y120.018 E71.79439
G1 X58.92 Y119.586 E71.82464
G1 X58.92 Y92.83 E73.69344
G1 X52.164 Y92.83 E74.16532
G1 X51.67 Y92.79 E74.19994
G1 X51.188 Y92.671 E74.23462
G1 X50.732 Y92.477 E74.26923
G1 X50.313 Y92.212 E74.30386
G1 X49.986 Y91.928 E74.33411
G1 X49.822 Y91.764 E74.35031
G1 X49.501 Y91.386 E74.38495
G1 X49.244 Y90.962 E74.41958
G1 X49.059 Y90.501 E74.45427
G1 X48.95 Y90.018 E74.48886
G1 X48.92 Y89.586 E74.5191
G1 X48.92 Y87.428 E74.66983
G1 X48.96 Y86.934 E74.70445
G1 X49.079 Y86.452 E74.73912
G1 X49.273 Y85.996 E74.77374
G1 X49.538 Y85.577 E74.80836
G1 X49.822 Y85.25 E74.83862
G1 X49.986 Y85.086 E74.85482
G1 X50.364 Y84.765 E74.88945
G1 X50.788 Y84.508 E74.92408
M204 S3000
M205 X10 Y10
G0 F3000 X51.116 Y84.972
M204 S1800
M205 X8 Y8
G1 F2400 X51.539 Y84.823 E74.95541
G1 X52.162 Y84.744 E74.99927
G1 X69.834 Y84.73 E76.23359
G1 X70.281 Y84.77 E76.26494
G1 X70.714 Y84.888 E76.29629
G1 X71.118 Y85.081 E76.32756
G1 X71.618 Y85.468 E76.37172
G1 X71.782 Y85.632 E76.38792
G1 X72.07 Y85.976 E76.41926
G1 X72.292 Y86.366 E76.4506
G1 X72.441 Y86.789 E76.48192
G1 X72.52 Y87.414 E76.52593
G1 X72.52 Y114.23 E78.39892
G1 X137.48 Y114.23 E82.93614
G1 X137.48 Y87.414 E84.80914
G1 X137.52 Y86.967 E84.84048
G1 X137.638 Y86.535 E84.87176
G1 X137.832 Y86.13 E84.90313
G1 X138.218 Y85.632 E84.94714
G1 X138.382 Y85.468 E84.96334
G1 X138.726 Y85.18 E84.99467
G1 X139.116 Y84.958 E85.02602
G1 X139.539 Y84.809 E85.05734
G1 X140.164 Y84.73 E85.10134
G1 X157.836 Y84.73 E86.33566
G1 X158.283 Y84.77 E86.36701
G1 X158.715 Y84.888 E86.39829
G1 X159.12 Y85.082 E86.42966
G1 X159.618 Y85.468 E86.47366
G1 X159.782 Y85.632 E86.48986
G1 X160.07 Y85.976 E86.5212
G1 X160.292 Y86.366 E86.55254
G1 X160.441 Y86.789 E86.58387
G1 X160.52 Y87.414 E86.62787
G1 X160.52 Y89.586 E86.77958
G1 X160.48 Y90.033 E86.81092
G1 X160.362 Y90.465 E86.8422
G1 X160.168 Y90.87 E86.87357
G1 X159.782 Y91.368 E86.91757
G1 X159.618 Y91.532 E86.93377
G1 X159.274 Y91.82 E86.96511
G1 X158.884 Y92.042 E86.99645
G1 X158.461 Y92.191 E87.02778
G1 X157.836 Y92.27 E87.07178
G1 X150.52 Y92.27 E87.58278
G1 X150.52 Y119.586 E89.4907
G1 X150.48 Y120.033 E89.52204
G1 X150.362 Y120.465 E89.55332
G1 X150.168 Y120.87 E89.58469
G1 X149.782 Y121.368 E89.6287
G1 X149.618 Y121.532 E89.6449
G1 X149.274 Y121.82 E89.67623
G1 X148.884 Y122.042 E89.70758
G1 X148.461 Y122.191 E89.7389
G1 X147.836 Y122.27 E89.7829
